/* XPM */
static char *_1[] = {
/* columns rows colors chars-per-pixel */
"64 64 177 2 ",
"   c #000000",
".  c #0A0604",
"X  c #0D0906",
"o  c #0E0B09",
"O  c #110702",
"+  c #120A07",
"@  c #140D0A",
"#  c #1A0E0A",
"$  c #16110D",
"%  c #1C120D",
"&  c #1D1611",
"*  c #1F1813",
"=  c #131313",
"-  c #220E0A",
";  c #23140E",
":  c #2A150E",
">  c #22180E",
",  c #2E180F",
"<  c #33150F",
"1  c #231711",
"2  c #291710",
"3  c #241A14",
"4  c #2B1C13",
"5  c #261E19",
"6  c #2A1E19",
"7  c #371610",
"8  c #3B1711",
"9  c #331D13",
"0  c #3A1E13",
"q  c #272017",
"w  c #2E2116",
"e  c #272118",
"r  c #2C221A",
"t  c #332116",
"y  c #3C2116",
"u  c #33241A",
"i  c #39261A",
"p  c #34291E",
"a  c #3C291C",
"s  c #342720",
"d  c #352A21",
"f  c #3B2D23",
"g  c #3D2F28",
"h  c #3E3226",
"j  c #451B13",
"k  c #4C1E16",
"l  c #501F17",
"z  c #432317",
"x  c #452619",
"c  c #4A2618",
"v  c #432C1D",
"b  c #4B2B1B",
"n  c #522117",
"m  c #552218",
"M  c #5B2419",
"N  c #552B1B",
"B  c #5A2E1D",
"V  c #45311D",
"C  c #49331E",
"Z  c #5E311F",
"A  c #61261B",
"S  c #65281C",
"D  c #722D1F",
"F  c #452E20",
"G  c #4E2E21",
"H  c #592E20",
"J  c #443225",
"K  c #4C3422",
"L  c #4F3825",
"P  c #453629",
"I  c #49362B",
"U  c #47382C",
"Y  c #4B3B2C",
"T  c #513623",
"R  c #5C3322",
"E  c #553925",
"W  c #5B3C26",
"Q  c #543D2A",
"!  c #5C3D29",
"~  c #4F3C30",
"^  c #513E31",
"/  c #5B3E32",
"(  c #643521",
")  c #643F27",
"_  c #6E3823",
"`  c #613E29",
"'  c #54412D",
"]  c #5D442D",
"[  c #5D4523",
"{  c #544431",
"}  c #5C4635",
"|  c #5D4A33",
" . c #5D4B39",
".. c #63422A",
"X. c #69452B",
"o. c #6E482E",
"O. c #724B2F",
"+. c #644C34",
"@. c #6C4D33",
"#. c #624D3B",
"$. c #754D31",
"%. c #794E31",
"&. c #774F38",
"*. c #65523B",
"=. c #69543D",
"-. c #69583E",
";. c #6E5436",
":. c #725034",
">. c #7B5233",
",. c #73543A",
"<. c #765B39",
"1. c #7F5938",
"2. c #6D5740",
"3. c #6F5842",
"4. c #705C41",
"5. c #755D42",
"6. c #7A5A44",
"7. c #756042",
"8. c #766046",
"9. c #7C6446",
"0. c #7D6648",
"q. c #7D634B",
"w. c #7F694A",
"e. c #853627",
"r. c #8E3929",
"t. c #87482F",
"y. c #874D36",
"u. c #825634",
"i. c #865836",
"p. c #885936",
"a. c #805B39",
"s. c #8C5D39",
"d. c #8F543A",
"f. c #925E38",
"g. c #A9583D",
"h. c #A45A3E",
"j. c #93613A",
"k. c #99643C",
"l. c #9F693E",
"z. c #A26B3F",
"x. c #81674D",
"c. c #82694B",
"v. c #846B4E",
"b. c #946942",
"n. c #9A6D44",
"m. c #9A6F48",
"M. c #957347",
"N. c #866B50",
"B. c #8B6E52",
"V. c #8D7254",
"C. c #967758",
"Z. c #967959",
"A. c #9C7E58",
"S. c #967856",
"D. c #A16B40",
"F. c #AA7141",
"G. c #A47449",
"H. c #A8774A",
"J. c #A97B4C",
"K. c #B07543",
"L. c #A47F50",
"P. c #C07151",
"I. c #9A8058",
"U. c #A3875D",
"Y. c #A6885F",
"T. c #A58461",
"R. c #AE8E62",
"E. c #BA9B6C",
"W. c #BFA070",
"Q. c #C09F6D",
"!. c #C9A873",
"~. c #C7A876",
"^. c #D2AF79",
"/. c #D3B17B",
"(. c #D9B880",
"). c #FDD094",
"_. c #FFE3A6",
/* pixels */
"                                                                                                                                ",
"                                                                                                                                ",
"                                        . .                                                                                     ",
"                                        r                                       3                                               ",
"                                      . . V.                                . . . o   .                                         ",
"                                      o $   .                                   $ $                                             ",
"                                      $ h & *                               @ . s 5                                             ",
"                                  .   e { *             . . . X X           * @ U s . X .                                       ",
"                              .     @ ' } &               +   . . .         % o Y #.&   . o                                     ",
"                                  @ { A.| $ & +     4 + + + ; +   .     .   @   Y A.| *   . o                                   ",
"                              5.1 *.R.Y.p   .     + + ; 9 + y % + + X   .   . 7.u U.E.7.r 4.                                    ",
"                            X   P R.^.9.X @   . X % 0 : c 0 z z 4 ; : .       .   -./.E.=.% 5                                   ",
"                            p e 4.Q.!.{       % ; 4 y 0 y y z 4 4 4 x ; # . X     h ~.^.0.e                                     ",
"                              h c.U./.I.e + + ; : 9 y : 0 : ; ; 9 9 0 9 ; ; @ . 5 v.(.W.c.p   .                                 ",
"                              r c.Y.E.w.f I i u 6 # 9 ; , 9 0 y 0 9 4 ; 3 t r I f =.E.U.9.p                                     ",
"                            & $ ' 5.0.Y I 6.} ' I 2 0 9 : N _ Z 0 y 9 % f #.Q =.Y f 0.9.*.q ).                                  ",
"                                & P P r s I J P r 9 y 9 4 N ( B z y 9 4 6 Q J h r s Y Y u   o                                   ",
"                                  $ 1 3 e 5 & r r K K K 4 0 0 y y y a V 6 6 3 3 3 e 3 $   . o                                   ",
"                                  L   @ & 3 6 3 5 Q @.@.K 9 4 y t W +.Q 1 $ 3 3 & & .   .                                       ",
"                              . . + X X # y y & @ L b.H.a.E T K @.H.m.] $ $ 9 y % + ; ; +   . .                                 ",
"                              . . @ ; : n B y @ X 6 ! n.n.>.>.:.b.G.X.r @ + 0 B N : # % ; # . .                                 ",
"                              .   # ; 4 4 ; # X & T e.y.>.Q ] L >.d.r.G 1 X $ ; 4 4 % ; # +                                     ",
"                              . % z 0 y v t $ + F $.h.P.N Q a.E H P.g.$.K + ; y b t 9 9 ; ;                                     ",
"                              . % 4 y 9 4 % + # a @.$.R ..n.J.b...R %.:.a # + % ; ; 9 9 ; 9 # .                                 ",
"                          . . X % ; 4 y 9 4 ; 9 x 4 J w L @.@.@.J i L t x z ; 9 z 9 9 ; ; 4 % . ;                               ",
"                              . # : 9 9 9 9 ; 0 ( 9 t 6 3 s g s 3 6 w 9 ( b 4 y b b 9 t i a t 2 . X                             ",
"                            X . ; ; % % 4 ; # : c x 4 6 5 3 6 3 r r 4 y z # 1 y 9 y 9 ....K W v %                               ",
"                            ,.@ a v v i 2 @ $ @ 0 z 9 $ & * * 3 & % t c 0 + ; : 2 i W p.j.X...W 4   X                           ",
"                              @ K X.j.O.E 4 t 1 ; 0 y @ u Q J Q r # y 9 ; 1 2 2 K W j.F.k.i.$.W 4 X @                           ",
"                        o o   @ T $.s...K v 4 r $ ; y w +.,.` ,.| 2 9 % $ i a i O.j.F.K.s.O.X.E t . +                           ",
"                        . @     4 K W v t K i Y p + y v | | ] ] ] v 9 @ f I u T $.k.z.z.i...E F 2 . .                           ",
"                        % p r $ ; i t t 4 W L u & @ 9 v v ; % 4 v v 9 + & e J ..E $.>.>.o.E v i i @                             ",
"                      q.@ r f u i v a X.T K >.4 5 5 1 y z b z N z z ; 3 u 6 o.W w a v T K T X.$...4   .                         ",
"                      o . * 5 f J t w X.X.i O.E p s $ ; b B N N y 0 @ p d J >...& 6 K T ..X.X.s.o.i   .                         ",
"                      .   $ & u I s $ t Q t t ` a 1 2 X ; c z 0 @ % 1 6 a X.X.t . t u.f.k.>.E $.W 2   .                         ",
"                  .   e o e J * & 5 & ; 4 1 $ @ 6 % i 1 + : , ; + 3 F 2 v i 2 $ @ $ W o.o.` W ..a % . .                         ",
"                . 3     5 ~ ^ u $ @ $ 4 % + .   @ 4 4 a 1 % ; % 1 a 6 2 w 1 & 6 & @ @ 6 i T >.o.i 1 @ ;                         ",
"                  $ f r s U Y J 5 @ % a 4 @ % +   t v 2 6 4 C 4 6 3 a T a a i 6 % X   4 W ..%.` v t @   .                       ",
"                e 9.Z.#.r g U g 5 @ % 1 4 9 a a . @ t % 4 u ..a > $ u a i u w % @     u E W W a t 4 ;   .                       ",
"                e V.Z.B.^ f J I r @ @ + % 4 T 9 @ X 6 t > C [ V % 6 a i 6 @ $ @ 1     $ 2 4 t t 1 9 4 . @                       ",
"            . @   { T.T.9.s r s r @ @ % i ..` K i @ % $ 4 V C V T u t t % @ @ $ $     & i t u 2 1 4 ;                           ",
"                T.3 4.C.x.} f 6 f 1 @ 1 v K v W W 4 + % 2 i <.M...t 1 % % ; % 1 @     1 r u f f 1 @ .                           ",
"                    3 *.q.v.3.I u e $ % % 2 i i a 4 4 % 1 J L.L.;.2 4 i J P 6 $ X . X 1 3 4 3 r 4 $   .                         ",
"                  .   $ Y V.N.5.#.#.U @ o X @ % @ @ t ; % i ' Q f t 6 4 i 6 # # ; v X.E v 4 3 $ 6 3                             ",
"                  @ .   & Y 2.q.v.B.q.p .       + % % # # 6 ' +.u 1 % X % % % % 4 ....u.X.i 2 2 $ o I                           ",
"                    .   _.  & P  .8.x. .3     X 4 v 4 # 8 7 u i # : 7 ; t E v 4 4 a u i.X.v t $ @ u                             ",
"                          o     o 3 d 5 o   @ t T T ; # l A 8 8 j k n : v >.O.C ; a X.o.T F 6 X                                 ",
"                              . & s Y s $ ) % v X.X.i ; m D D M j M n 4 T s.u.o.a i J i i a t . . .                             ",
"                                        @ . 4 C X.X.K 2 n D D k n A j 4 o.D.s.$.T t 1 6 4 4 %   .                               ",
"                                        ; % i T ! W v 1 n S S m A k < 2 T p.i.$...K % . @ .                                     ",
"                                        X . w K K F a 4 7 m S S n 7 : $ v o.>.u.E a @   @ @ .                                   ",
"                                        .   % i i t t 3 # 8 S A 8 : # @ i X.X.%.W 4 .     .                                     ",
"                                            + i i 1 @ . . # j m - . + . @ t v ! T 2 % X     .                                   ",
"                                          . . @ % @ X + X . # j - + + X + + 1 t t % 1 4 @   .                                   ",
"                                            6   . . @ $ % @ . - + ; 4 # ; . # 4 4 1 ; 9 ; . X                                   ",
"                                              $ + $ ; 4 1 . +     ; ; ; % % + 4 i 4 ; 4 ; . X .                                 ",
"                                            ; . % 4 t t % . X . . t.. % @ # 4 @ % 2 9 9 % @ . .                                 ",
"                                        . .   @ y y 9 9 @       X + . # # # +   ; y b b y % . . o                               ",
"                                        .   $ & 6 6 1 $ + v       % % % % % + . ; 4 9 b 9 # . . o                               ",
"                                        @ . e 3 P U r $ . o                   x @ 4 6 1 ; % X O =                               ",
"                                        X . o $ g u $ . . .                 .   & U P r f & . o =                               ",
"                                        @ . e . @ .   e . o                 + . & P f 5 f & . o                                 ",
"                                                  #.                          $ @ $ $ @ % @ /                                   ",
"                                                                            . u @ 3 1 # 1 @                                     "
};
