/* XPM */
static char *_2[] = {
/* columns rows colors chars-per-pixel */
"64 64 231 2 ",
"   c #050504",
".  c #080606",
"X  c #070806",
"o  c #090A06",
"O  c #080708",
"+  c #0C0B0A",
"@  c #110E0C",
"#  c #0E1207",
"$  c #0D110C",
"%  c #13120D",
"&  c #18140E",
"*  c #15190A",
"=  c #1A1B0D",
"-  c #161907",
";  c #151311",
":  c #1A1613",
">  c #1C1A14",
",  c #1D1B1A",
"<  c #171716",
"1  c #221F0E",
"2  c #221C16",
"3  c #221E1B",
"4  c #281F18",
"5  c #1D210D",
"6  c #1E2117",
"7  c #23250E",
"8  c #2B2E0D",
"9  c #262C0D",
"0  c #202216",
"q  c #292515",
"w  c #242913",
"e  c #2B2C13",
"r  c #25211C",
"t  c #2B241D",
"y  c #2C2A1B",
"u  c #32261E",
"i  c #322A1D",
"p  c #372C1A",
"a  c #2D3315",
"s  c #2F3C10",
"d  c #323414",
"f  c #353B13",
"g  c #393C16",
"h  c #36331D",
"j  c #3B331D",
"k  c #3D3B1C",
"l  c #343A1A",
"z  c #363B0F",
"x  c #1E2220",
"c  c #252321",
"v  c #2C2522",
"b  c #2E2923",
"n  c #2E2929",
"m  c #2A2528",
"M  c #312723",
"N  c #332B24",
"B  c #392E24",
"V  c #342D2A",
"C  c #392E2A",
"Z  c #293324",
"A  c #343124",
"S  c #3C3225",
"D  c #35322B",
"F  c #3C332B",
"G  c #3C3A2D",
"H  c #383926",
"J  c #3B3432",
"K  c #3E3A33",
"L  c #3B3C38",
"P  c #352D30",
"I  c #413D18",
"U  c #423526",
"Y  c #443B25",
"T  c #4A3B25",
"R  c #42352B",
"E  c #443A2C",
"W  c #4B3C2D",
"Q  c #513E2D",
"!  c #433631",
"~  c #443B32",
"^  c #4C3D32",
"/  c #463D3B",
"(  c #4B3730",
")  c #503E32",
"_  c #3D441B",
"`  c #3B4215",
"'  c #3C432B",
"]  c #494C17",
"[  c #43431B",
"{  c #444A19",
"}  c #484C1C",
"|  c #404617",
" . c #4D521B",
".. c #4D591C",
"X. c #52591B",
"o. c #5B5C1D",
"O. c #525619",
"+. c #484E0F",
"@. c #5D621D",
"#. c #5D6517",
"$. c #6B721E",
"%. c #67681D",
"&. c #454224",
"*. c #4B4225",
"=. c #4D4B23",
"-. c #46422C",
";. c #4C422D",
":. c #484B28",
">. c #544B25",
",. c #53432D",
"<. c #5A462E",
"1. c #534A2B",
"2. c #5A4B2E",
"3. c #554426",
"4. c #4F5423",
"5. c #555421",
"6. c #555B22",
"7. c #5C5C24",
"8. c #58512A",
"9. c #444133",
"0. c #4D4233",
"q. c #4D4A32",
"w. c #4C433A",
"e. c #4D493C",
"r. c #474639",
"t. c #544433",
"y. c #5A4633",
"u. c #554934",
"i. c #5B4A34",
"p. c #554539",
"a. c #5A4739",
"s. c #544B3A",
"d. c #5C4C3A",
"f. c #4D5032",
"g. c #5D5134",
"h. c #5C533B",
"j. c #585438",
"k. c #614D2E",
"l. c #635B2B",
"z. c #624D35",
"x. c #634D3A",
"c. c #694F37",
"v. c #645235",
"b. c #6A5436",
"n. c #6B5C35",
"m. c #64523B",
"M. c #6B553C",
"N. c #65593A",
"B. c #6D5A3C",
"V. c #635A34",
"C. c #725B37",
"Z. c #71563C",
"A. c #735C3C",
"S. c #795E3D",
"D. c #5C6222",
"F. c #5B6028",
"G. c #636524",
"H. c #646C25",
"J. c #69692B",
"K. c #706F2B",
"L. c #6C722C",
"P. c #6C7523",
"I. c #707523",
"U. c #757B25",
"Y. c #757A28",
"T. c #6D613C",
"R. c #75613C",
"E. c #7B623D",
"W. c #766935",
"Q. c #767430",
"!. c #534A41",
"~. c #5E4F45",
"^. c #595141",
"/. c #4E4842",
"(. c #645341",
"). c #6A5542",
"_. c #675943",
"`. c #6D5A43",
"'. c #6F5D49",
"]. c #745E41",
"[. c #7A5E42",
"{. c #765F48",
"}. c #6B6140",
"|. c #736243",
" X c #7C6443",
".X c #7A6A42",
"XX c #75634A",
"oX c #7A634A",
"OX c #7D694A",
"+X c #766848",
"@X c #84693D",
"#X c #8B773C",
"$X c #816643",
"%X c #856B44",
"&X c #896D44",
"*X c #836C48",
"=X c #8A6E4A",
"-X c #857145",
";X c #8B7345",
":X c #8C714A",
">X c #8A7B4D",
",X c #92754B",
"<X c #947A4C",
"1X c #9C7D4C",
"2X c #957946",
"3X c #816F50",
"4X c #957B52",
"5X c #9A7D54",
"6X c #937654",
"7X c #8D7056",
"8X c #7D822B",
"9X c #7C8B29",
"0X c #7D8535",
"qX c #848A33",
"wX c #8D9230",
"eX c #A8AA3A",
"rX c #9C8446",
"tX c #9F8159",
"yX c #9E8551",
"uX c #8B8241",
"iX c #A2854C",
"pX c #A78B4F",
"aX c #A4934E",
"sX c #AD8B54",
"dX c #A68755",
"fX c #BD9C57",
"gX c #B4935D",
"hX c #C09F57",
"jX c #C8A85C",
"kX c #D3B067",
"lX c white",
/* pixels */
"; F N q e ^ '.`.`.. `.m.B y.F y N >.$ q & t % %   U t.C . d.m.d.9 w h N ^ ^ > D.>.S S O ; , F v @ E , , s.p.E ,.t.r N 3 : b v N ",
"O V V v . . E ~ w.. m.d.t.y.Q 3 3 > A p.^ t.h 7.H M.> ^ . x.x.) % | & N ) ^ > > S d.S S E C D F ~ 3 W 2 N 0.F 2 N v u N N > > v ",
"3 D ~ . t.t.F 2 . . a.3 4 t.M.t.b t N N V x.q 7.V.v.E E a.. . x.U . . c.a.E O t B t.1.J.3 U M N t E M u 2 N N ^ t 2 N N V v + > ",
"^ N F . ) ) 2 . . ^ N ).r 3 ^ F ~ N N r b ).B > ,.=Xm.t.|.XX. w.M.. > M.2 U i B S S j 7.N w.F 0.V : : B B N 0.v b , v R ~ t ; + ",
"E y N . N . . . c % 3 N ) M.S.t.U 3 S u.E F B 2 M.M.t.`.`.XXE m  X. 3 x.N S E E U U y 2 u M d.t t N y F E 0.a.N 3 D < v v ; & ; ",
"w.F ^ . R D C t 2 0 U ; N ,.<.z.Y T Y A.E m.N y.N a.oX].d.).3 m.M.. t t M.M.0.E ~ ~ n 6 % s.(.3 h.h.h.s.E ;.B @ , !.~ ! 3 : r & ",
"R v . D ^ d.t.W E z.b.W ].].,.z.E ,.Y <.A.M.^ ^ b F d.'.~.s.`.OX2X. 3 % d.E m.d.d.w.L K F N x., s.s.s.h.h.m.F + c ~ ~ ~ > o 3 r ",
"; n . N t.x.x.z.W W t.B.Q t.E Y v.j U M.,.S E E D b D ~ s.XXOXOXk.. ; b.B.].W i.B.d.(.m.p.0.r + E q.s.h.h.t.i < D v 0 0 0 % r 3 ",
". V . . t.d.d.~ W & W u y + 2 U E 3.<.T 1.h ;.g.U t.N W d.XXoXt.%X. < M.& [.y.D Q R ).).p.p.^ F r B ;.H i.E O V / ! 0 G.0 0 3 r ",
". n ! t.. x.x.t.p.& t 0.A E p.F N i.i.y.j k g.|.M ~ V ~ W a.`.`.x.. + C oX].W (.) ~ m.m.d.d.x.t.E E H y 1.b q.0 0 0 0 f o 0 = 3 ",
". . . 3 . 0 0 F N > 0 0 & = . . . . . . 3 B a.(.~.R . . . . . . . . . . . . . . . . . . t.0 0 0 0 0 0 0 0 0 0 Q.@.a X.` 6 a 0 = ",
". . . . 0  .G.0   = 0X9X0 . . . . . . . . . . . . . . . . . . . . . . . . . . . . . . . . qX .* qXL.l Y.8X4.6.d 9 X. .{ w # * 0 ",
"A -.0 0 8XU.0 i i.i.-.y 0 W.#XC.C.. . . . . . . . < y.$X].gXdX,X<XgX. gXR.U ] 8 * _ wXwX%.9 o w P.9 _ g X.8Xf qXeXL.Y.s ..X.| * ",
"1 S K.I  .0 0 C |.].=Xy.z.b.v.y.. T E.%X5XtX;X. . t u.u.M.b.B S.A.A.$X1XdX&XN % * f Y.X.* ] G.7.e 5 D.6.w Y.U.8Xg } f ` H.L.F.| ",
"F m 0 0 0 i S W y.d.t.S %X:X;XA.. i.b. Xz.=X<X. . S B.0.E t ;.E i.i.$Xv.~ s.t.t.0 0 0 * * e 6.H.a { H.} qX% P.I.f _ U.Y.# 0 h F.",
"c m c t b y.t.B.B.A.r t.S %X XB.. &XA.v.E.=X;X. . i $X Xy.h.B %X%X$Xb.N D F `.d.d.N F v 0 e o.6.w 7 w d [ d + _ $ o $.6 0 0 0 0 ",
", m 3 N D x.t.d.y.y.b Q U W y.B.. B.E.A.R. X<.. . i y. Xy.y.E v.B.$XA.t.0.M.M.B.,.u.F > 0 * 0 0 0 e o.I.K.=.% l > . 0 . . > v 0 ",
"O +   3 b p.t.B y.y.t.t y.t.v. X X. . . $XE.U . . B t.`.t.]. XB.W x.t.t.t.[.A.A.v.Y D r > ; d.3 . 0 } G.5.l.@ &.% + 0 % O . 3 v ",
"  q   % V p.^ . . i.E M.U W t.B. X. v.i. XE.C.. . E b ^ E. X X Xy.. . . b A.v.v.F t.F F U E x.: . o 0 [ h E % 0 0 0 [ 3 C ; 3 3 ",
"  : 3 b r : N ^ . U W W  XE E z.. (.d.y.$XE.C.. . t 3 t.b.v.%XB.. F t.W W t.d.y.F ;.i x.d.W 2 @ > > o 0 0 0 + r N N = > S F v 3 ",
"O N v N = & S ^ d.. d.y.z.A.W z.. s.d.B.$XB.<X. . . 3 y.c.d.M.M.. . x.M.d.y.W v N N n t t.M.a.> s.e o.. p.> p.D B S + * 7 C v v ",
"+ P J S q 1.M.B W ,.. . . M.. . . M.C m.t.|.dX. . > . W M.x.x.. y. X$Xz.B.W E 3 W y.a.N C y.Q t r . . O ].).0.R t.W : $ 8 M v v ",
"+ m / ;.Y n.W ( r ~ s.9.E . . A.A.A.v.N A.B.<X. . t . Q x.W z.. E  X X X-X2.v.k.,.i.y.t.B W ( F E . . . y.|.a.t W ^ R v 3 > t n ",
"+ V D w l l.. R D 9.G s.. M.A.].S.A.y.x.*Xd.A.. . > Y . x.y.. B A.v.g.g.&Xv.A.E.b.,.E.N U Q C R G . . . S u.u.y.i t 3 F V @ y t ",
"O J ~ ' . . . M t w.s.h.. y.M.A.[.x.A.=X=X,.$X. . > S.[.. . . u W i.2.1.2.A.R.A.. q W.U U b < E Y.> . . i.;.|.z.y.^ p.0.N . > t ",
"+ V t r . G . ^ N F h.s.S . c.b.Z.y.].].].Z.y.. . 2 3.$XU b.. $XU ;.3.&.y.v.S E . &.8.;X&XQ W 0.W : . . oXOX,.y.B r S > > 2 i > ",
"m C ^ . . B . M N N N d.|.i . a.d.z.v.y.y.Z.d.. . B A.A.. . =XA.E N ,.y.y.y.B.,.;.. . &Xz.A.d.z.v.m.. . . ].: r u.-.&.' < ^ V i ",
"3 v V . E W . E t.0.r d.m.E t.. C t.U M.M.].z.. . c E . <.i.c.W z.y.E r B v.v.C.y.t.W . F A.$XB.|.A.. . . m.S R.N.}.-.Z + t K V ",
"0 0 0 0 v S . t.t.S r r W i.m.. : E d.r N ^ m.. . + 3 . W W i W E E W ].^ z.z.,.C.M.W .  X,.&X&Xb.$X2 . . n F ,.U E 3 X . 3 , K ",
"_ #.U.8X0 0 U.O.0 2 . . . . . . . . . . . . . . . . . . . . . . . . . . . . t.C t. Xv. X. ,XE.C.$X<.2 . . . . . . . . . . . . . ",
"* z 9 -     6.5 0 . . . . . . . . . . . . . . . . . . . . . . . . . . . . . . . . . . . . . . . . . . . . . . . . . . . . . . . ",
"[ # [ wX=.v.&.d J.0 . U A.&X<XiXsX=XyX,XiX;X1.#X#XrX@X;.R.jXjXiXJ.#X#XaXU . . . . . . . . . . . . . . . . . B.N.m.B. X-X<Xv.%Xo ",
"[ = * [ I *.d.0 5.0 . t.0.t.t.t.v.A.v.R.2.R.&X2XC.hXfXfX<XsXR.sX3.>.i v.6X& . B.dX-X;XkXjXjXfXpX2XiX1.rX&X%XpXiX1X2XN.u.i.W t.%X",
"+ t p.* e W t.0 4.X.o a.x.t.].].B.y.].].v.,.v. X,X<XA.|.OX*X Xv.@Xi aXN.B.+ . q.2X-XV..X<XyX>Xn.I 1.C.i.E.;.N U . 0.R.0.m.m.m.t.",
"+ N b w e 0.oXE u.O . t.a.t.].].M.t.].].].].].].$X,X].].m.*X:XA.3.B uXy *.. . ;X;Xn.. q.f.T.-X1.& A.M.v.d.y.t.R . t W E F E t.m.",
"% b E S y y B.v. X. . F . t.W ].].,.t.x.].].].].].m.].].%X;.OXE r t.p X.w O . .X. . . H g.V.,.g.$XC.,.,.t t.v.y.. ^ E i.d.0.A y.",
"+.> F E t.i.S g.4X. . . . E ^ ].].].t.].].v.].].].].m.].,XS.C.=X%Xc.A.H.$.. . N.. g.1.-.i.y.U E W S ,.> 2 M.x.d.t.. . V n q.A A ",
"o @ t b F v.|.N.,X. . r . 2 W d.].].].].].E.].].].].6X].].i U E A.y.y.r =.. . . . 1.V.V.E E Q E b ; t t i y.d.F E t.t.. . b r A ",
"  3 r b N v.y.,.=X. . > . . t.x.].].].y.].M.$X].].].].].].Z.].[.S U ,.7Xu.& . t 2 2.h V.,.x.x.d.b M.U t.E N t ~ b ^ N b r . . . ",
"  v t d.3 ;.% ;.$X. . = . 2 . . x.].a.d.].x.<X].].].].].].].d.].m.i.y.t.3Xo . . N.E.R.i ,.W ^ x.x.z.E U E C `.N x.W N 3 t . . . ",
". m % ~ r v E M.:X. . y B S y.. z.].a.. 0.`.:X].].y.].].].A.v.x.$XB.y.v.W O . . W &X;X,.T ^ ) U ) N y.y.A.M.E U t.M.A 0 r 2 , . ",
"X c D D , y.U U ,X. . v.N C a.a.W ^ . S y T.B.B.].].B.u ].].i.u.$Xy.y.y tXO . q.U E.E.v.S E S F t.t.t.E <.r y.t.W E H >.h i i , ",
"O m e.s.E ].; U :X. . OXi.E W ^ E . u.E k 1.Y . F x.E ].B.v.].q.A.y.E ;.4X. . 2.> 2.3.t +X+X|.S t.d.B S U i.,.t.N r W T Y *.h i ",
"+ n ~ 0.m.m.,.m.5X. . 0.A.b.].. . x.y.W . . . . W U N {.m.;.y.M.y.M.d.0.A.X . *.1.S y |..X}.g.h.S t.E z.b W S U t r i t Y Y q h ",
"O n J D h.;.A.i. X. . F U . . N D m.x.W . ^ ^ R U t t v.y.y.y.x.t.]. Xd.].. . i.b.t 1.q.T.T.N.T.u.-.S i N E N N r & @ ; W i + q ",
"  3 / /.F O M.+ S . . ^ m.. r S M.E N . F a.3 0.r E ; u 2 d.N 3 E t.x.m.C . . N.E.Y i g.h.B.T.T.;.-.E A t v D D ^ r F F 0.^ C + ",
"  * J r : 3 y.W t . . ~ . . > y.z.;.h . t F ^ ! F ^ R N ^ ^ U F , c v n 3 . . F C.i.z.v.N.B.B.B.m.v.E 2 @ 3 D v ^ t.R ! ^ ^ p.C ",
". 5 < m r V D d., . . . . . B d.M.g.. > t t.F D w.C v > 3 . . . . . . . . . . . . . . . . N A N K !.w.E =.6.> ; 3 b N N V D N p.",
". . . . . . . . . . . . . . . . . . . . . . . . . . . . . . . . . . . . . . . . . . . . . . . . . . . . . . Y.5 5 f * X = X O N ",
"> > @ & 2 : : & : r 0 2 > = = o % @ . . . A.. 1XsXsX. . . t i.N S i.E.<.,.=X:XM.,XA.i.$XI e > dXdX. . . . p . o f 8 k 0 0 I.l.O ",
"^ U B Q M.,.W N t.y.S T j u T A.A.<.A.y. Xi.<.W A.v. X. . y.M.S 0.> _.B.B.5Xy.m.=XB.,.E.S @XC.B v.B y.m.B.M.2 r m.|.t.S 0 0 0 l.",
"R N . U z.S F . & B B i Y v.v.y.m.: y.; M.A.R.y.i M.i.. . t N p.F > b t.v.M.,.z.y.y.B.S M.].x.v.m.& t m.y.d.m.C m.y.d.W ; W t.0 ",
"N t i . t Y =.+ O S E C F x.y.F N U S U ,.y.v.M.d.N |.U . > t C : F F F u.y.t.t.b t.y.C v E S S B `.t E E h.d.a.D p.E F 2 C V t.",
"3 : e : 3 r 2 n.; > > & 3 E b v S W ,.W r ^ E W r W v.c.. % t.% D p.t.t.y.^ t.t.y.m.N N M E t : z.M.).0.; t u R r ; r r N M v V ",
"N r % > > b N *.t v v ~ D ~ D w.D d.0.t.d.D F v N C y.. . : t > F t.t.p.a.~ R v N d.t.v N F F t W W 0.s.J !.N r.e.^.G G 9.: n v ",
"p.F N , , v + &.v N v F e.w.e.D ; N E ~ ~ V D r C U 3 B . 3 3 N R t.a.a.a.t.2 : t.E U E @ O N N R t.t.w.D r N e.D e.D 9.0.A 3 N ",
"C b D b > y 2 O v M v N ~ 9.F n K w.A c N c c N N W t.. . _.; v v F 0.^ ! p.N 2 t 3 N V 3 + O v N D R D n r s.~ b D G A 9.E > 3 ",
"a.t F N t B @ F 3 v t N D D F p.a.w.b D ~ D v 3 V ^ d.. . F : v v V F D N E N V ; N N V . L ; . N V C V n b ~ N v N r.Z H E r > ",
"D > : F b > ; D + r ; , , x c D V < V K K D r F ! U & . . : r : M N V v N ! v N 3 @ ; ; ; V V O 3 N N N D 2 r v v v r.Z D N 3 r ",
"v . N D 3 r + o + 0 : : 0 $ + ; ; + v , : r v : N % o . . v r & 3 v v + N M N M 3 3 t F v J / O + r 3 n N V . . 3 3 % b D r @ 3 ",
"O e + D r v @ . % g D.% 7.. = % y & k r y N > N & % & . . v r 3 3 v , : N v 3 V t v v D D V V O , q + % 0 G.0 0 m t % 0 0 @ N @ ",
"g ] l 0 o.O 3   ; ; + o [ 5.=.> -.% D. .7 0 ; r b v n . . c v r , > c n v V V t : > v v m c + O : ; e 0 @.H.0 0 r } f 0 0 0 2 N ",
"& & = f ` O = =   .   +  .X % > =.} 7 @.f  .X .   O 3   . , v v M + @ . ; o o V N n v m V ; , + . . + 0 }   ` L.X = 8 g 0 0 0 0 ",
"lX& & = f ` O = =   .   +  .o % > =.} 7 @.f  .X .   O 3 . . , v v M + @ . ; o o V N n v m V ; , + . . 0 0 0   ` L.X = 8 g O.= 0 "
};
