/* XPM */
static char *_3[] = {
/* columns rows colors chars-per-pixel */
"64 64 242 2 ",
"   c #242626",
".  c #262629",
"X  c #29262B",
"o  c #262929",
"O  c #2A2B2C",
"+  c #272926",
"@  c #2C2D32",
"#  c #2E2E38",
"$  c #332E3C",
"%  c #312D34",
"&  c #2E3234",
"*  c #2F343A",
"=  c #2F383A",
"-  c #323335",
";  c #32343B",
":  c #353A3D",
">  c #3A3C3E",
",  c #363937",
"<  c #2E2E2F",
"1  c #3F413F",
"2  c #343443",
"3  c #353B43",
"4  c #3A3D43",
"5  c #363348",
"6  c #393349",
"7  c #363D4A",
"8  c #3F3C4C",
"9  c #3A3446",
"0  c #3B3D52",
"q  c #3C3A56",
"w  c #423E43",
"e  c #433D5B",
"r  c #413C55",
"t  c #453F66",
"y  c #364145",
"u  c #3B4245",
"i  c #3C444B",
"p  c #3F4A4D",
"a  c #36424A",
"s  c #3C4552",
"d  c #3E4A53",
"f  c #3D4B5A",
"g  c #3B4456",
"h  c #3F5156",
"j  c #3E4763",
"k  c #3E5160",
"l  c #414445",
"z  c #42454C",
"x  c #424A4D",
"c  c #45484A",
"v  c #424552",
"b  c #434C54",
"n  c #4B4D54",
"m  c #42445C",
"M  c #434C5B",
"N  c #4A4D5C",
"B  c #48425F",
"V  c #55495C",
"C  c #445155",
"Z  c #4B5254",
"A  c #45525C",
"S  c #4A535B",
"D  c #4A585E",
"F  c #52565E",
"G  c #54595F",
"H  c #47514C",
"J  c #464464",
"K  c #434D63",
"L  c #46426C",
"P  c #494B68",
"I  c #455363",
"U  c #4A5563",
"Y  c #465964",
"T  c #4B5A65",
"R  c #45546B",
"E  c #4B556B",
"W  c #465A6B",
"Q  c #4B5C6B",
"!  c #545463",
"~  c #525B64",
"^  c #525C6C",
"/  c #5A5C6A",
"(  c #585468",
")  c #4B4A73",
"_  c #524B7C",
"`  c #524975",
"'  c #4B5C73",
"]  c #4D5C7B",
"[  c #4A5674",
"{  c #525D72",
"}  c #5A5D73",
"|  c #535D7E",
" . c #56597A",
".. c #554F6B",
"X. c #63587D",
"o. c #4D616D",
"O. c #496169",
"+. c #51616B",
"@. c #576168",
"#. c #4D6374",
"$. c #4E647B",
"%. c #4B677C",
"&. c #526374",
"*. c #546875",
"=. c #52647B",
"-. c #5B637A",
";. c #536A7D",
":. c #5B6B7C",
">. c #5B6774",
",. c #55707F",
"<. c #636778",
"1. c #4F4980",
"2. c #544D84",
"3. c #594B85",
"4. c #545C85",
"5. c #54548D",
"6. c #595588",
"7. c #5C5794",
"8. c #5B5B96",
"9. c #4A5D80",
"0. c #625B9B",
"q. c #62559A",
"w. c #60558E",
"e. c #4E6484",
"r. c #4F6A82",
"t. c #4F6989",
"y. c #546583",
"u. c #5A6483",
"i. c #546B83",
"p. c #5A6C84",
"a. c #55668B",
"s. c #556C8B",
"d. c #5A6D8B",
"f. c #5B648D",
"g. c #557185",
"h. c #55728C",
"j. c #5B738C",
"k. c #5A7488",
"l. c #556B92",
"z. c #5C6E92",
"x. c #5A6897",
"c. c #567392",
"v. c #5B7493",
"b. c #5E7994",
"n. c #57759A",
"m. c #5C749B",
"M. c #5C7B9B",
"N. c #577998",
"B. c #616C84",
"V. c #656989",
"C. c #62738C",
"Z. c #627587",
"A. c #636797",
"S. c #627492",
"D. c #617B94",
"F. c #62759B",
"G. c #627B9C",
"H. c #6A7894",
"J. c #5E5BA3",
"K. c #635CA8",
"L. c #6C5FB8",
"P. c #5D7CA2",
"I. c #5E7DAA",
"U. c #5C76A0",
"Y. c #5F6DAA",
"T. c #6763AA",
"R. c #6375A2",
"E. c #627DA4",
"W. c #6C7CAC",
"Q. c #6879A8",
"!. c #6C64B4",
"~. c #6A69B8",
"^. c #726ABA",
"/. c #6979B4",
"(. c #727DAF",
"). c #6C6AC3",
"_. c #736CC5",
"`. c #716ACC",
"'. c #7672CB",
"]. c #7A78D7",
"[. c #7171CA",
"{. c #7D78E8",
"}. c #8177D6",
"|. c #857BE9",
" X c #877DF9",
".X c #5F809E",
"XX c #67829C",
"oX c #5E82A4",
"OX c #5F83AC",
"+X c #5F84B2",
"@X c #6482A5",
"#X c #6B83A5",
"$X c #6684AC",
"%X c #6B83AB",
"&X c #6889A9",
"*X c #7186AC",
"=X c #6484B2",
"-X c #6A85B4",
";X c #658AB4",
":X c #6A8AB4",
">X c #6486BA",
",X c #6A86BA",
"<X c #668ABB",
"1X c #6B8CBC",
"2X c #728BB5",
"3X c #7289B8",
"4X c #6A91BD",
"5X c #7897BE",
"6X c #6B8DC1",
"7X c #6B8CC9",
"8X c #728AC4",
"9X c #6D92C5",
"0X c #6E94CC",
"qX c #7395CB",
"wX c #7396C7",
"eX c #7788DA",
"rX c #6E93D0",
"tX c #7394D2",
"yX c #749BD4",
"uX c #7A9CDA",
"iX c #7899D8",
"pX c #7CA2DC",
"aX c #79A0CE",
"sX c #7799E4",
"dX c #7BA4E4",
"fX c #7DA7F8",
"gX c #80A7DD",
"hX c #8597EC",
"jX c #8983F8",
"kX c #958AFD",
"lX c #9C99FF",
"zX c #8080E9",
"xX c #84A9E6",
"cX c #84AAF8",
"vX c #95ABFF",
"bX c #87B5FC",
"nX c #93BDFF",
"mX c #ACA9FF",
"MX c #8498D6",
"NX c #9AC7FF",
"BX c #A5D4FF",
"VX c white",
/* pixels */
"& Y M j j +.XXG.#X  XXj.C i.E m N x.% g * d # #   ' =.A   j.b.j.t e P b &.&.7 ^.x.R E o - 4 S b @ Q > > :.:.Q r.i.i b y * b d M ",
"+ C Z z     Q Q &.  b.g.;.r.%.4 4 3 S ;.#.;.) ~.' P.: +.  v.h.#.# 5.& b #.#.4 6 I j.I U Q I A A Q y #.3 b *.U 3 b d d b b : 3 d ",
"u S ~   =.=.U 3     ,.4 a i.M.=.b b b b C k.g ).R.M.Q Q g.    j.W     N.i.Q O v M p.a.[.i ' d C i T f d 3 b C &.a 3 f b b x O 3 ",
"&.b S   $.$.3     &.C D.s y &.U Q b b u v D.K 3 y.wXD.p.%X*X  &.E.  4 M.i W M K I I R ~.f *.A &.C = - N M b *.i b > i T o.i - O ",
"Q v M   b       z - i C #.M.;Xi.W 7 A p.' Y I 7 G.G.i.@X#X*X^ c >X  3 c.M I ' Q W W M 3 d d j.a i N v E { =.p.M 4 S - d p ; ; - ",
"&.U &.  T S A d 8 i [ - b i.l.n.' 9.] $X' S.C r.v p.:X#XZ.D.4 C.I.  i d M.M.;.^ ~ ^ n 4 @ :.D.3 S.S.C.V.{ =.I < > :.o.T 3 - u ; ",
"T x   A &.j.;.&.' n.M.$.@X@Xy.m.' a.] s.$XE.&.&.b U Z.XXZ.B.#X2XuX  3 & h.' F.k.j.>./ / ! b j.: B.V.V.S.S.F.U + l +.+.T , O 4 u ",
"- x   b ;.h.h.h.#.$.;.P.$.i.' ' m.R [ P.a.E Q { S b S ^ :.*X2X2Xn.  - M.E.@X$.z.E.j.b.v.:.&.u O ^ u.V.S.S.p.d - Z x 8 8 8 * y 4 ",
"  n     i.h.h.Q #.* Q f f O 3 W ' e.s.' l.P u.F.Q i.C $.d.#X:Xy.9X  , M.* &Xh.U %.Y D.D.:.:.&.U z I y. .z.Q o C @.T r _.r r 4 u ",
"  c O.;.  c.j.*.:.* i =.U Q *.S b c.c.s.[ [ S.#Xp o.b ~ #.p.G.E.j.  O A &X@X#.S.#.o.b.b.k.g.k.=.{ ^ E J a.N V.8 r 8 8 2.X r 6 4 ",
"      >   8 8 U b 3 8 8 ; 2             4 N p.C.Z.T                                     ;.8 8 8 8 8 r 8 8 8 8 eX`.L !.3.8 P 8 6 ",
"        8 T._.8   6 kXkX8                         +                                       kXK.9 kX}._ |.jXT.^._ t !.K.q.e $ 2 8 ",
"E | 8 8 jXjX8 M d.v.=.m 8 eXtX=X/.                ; d.4X$XbXbXyXpXnX  nX>X] J.L 5 q.lXkX].t @ e |.e 6._ !.kX2.kXmX|.|.3.L.!.7.2 ",
"0 E ].5.T.8 8 A %X#XwXs.n.P.m.s.  ] >X9XdXxXyX    s d.p.P.M.I ;X@X@X<XdXcX9XM ; 5 3.jX!.5 J.'.^.J q _.T.m |.jXjX2.0._ 3.}.}.^.7.",
"! l 8 8 8 M U #.s.j.y.I 9XyXyX$X  c.P.<Xc.wXdX    U @X&.{ v y.' j.v.<Xm.^ :.;.:.8 8 8 5 5 J !.}.` q.}.0.kX$ ].|.` w.jXjX# 8 P ^.",
"1 l u i b s.;.E.oX@Xi ;.I 9X-XE.  wX=Xm.;XqXyX    K 1X:Xp.S.A 9X9X6XI.M S T @Xj.v.N U z 8 J ~.!.r e t ) 5.) @ 6.# X {.8 8 8 8 8 ",
"> u 4 b S c.p.j.s.s.v $.W #.s.@X  @X1X$X-X1Xl.    M s.:Xd.d.' m.@X6X+X;.=.M.P.oXy.a.T 4 8 5 8 8 8 L ).{.].A.$ ` 4   8     : z 8 ",
"+ @   4 x ;.;.I i.s.;.i s.i.M.;X1X      6X<XW     I =..Xi.$X1XE.#.j.i.;.i.;X=X$Xb.' S u 3 , g.y   8 7.'.T./.@ 6.# @ 8 &     u z ",
"  m   @ Z :.&.    s.Q M.W $.=.E.;X  b.j.1X>X=X    Q b #.>X;X:X1Xs.      b OXm.v.Q p.U I Y Q k.*   . 8 6.P { @ r 8 8 5.4 C & u u ",
"  ; 4 x u - b &.  W #.#.:X' #.c.  D.j.d.9X>X=X    i 4 i.M.M.9XE.  Y =.&.&.;.h.p.I ;.d k.h.#.3 @ : : X 8 8 8 O z A A 2 ; A Y p u ",
"+ b x M 2 ; E #.h.  h.s.c.oX$.c.  p.j.G.4XE.uX      4 i.n.h.M.M.    b.M.h.p.#.b b M x a i.M.h.3 p.L ).  *., :.S I I O $ e A i p ",
"O H Z E 0 y.M.I $.y.      M.      M.A j.=.:XcX    3   $.N.c.c.  i.1X1Xv.E.=.' 3 o.i.h.C A s.%.i u     + #XD.&.T i.=.- % L d x u ",
"+ l +.y.| I.#.O.y ^ B.} '     @X@X@XM.v @XE.pX    d   %.N.=.h.  ' 1X1X<XqXm.U.m.r.h.s.;.I #.#.I Q       s.%Xd.d #.=.W d y : a x ",
"o H S e ` /.  Y Z @.( V.  P.$X$X=X@Xs.v.9Xc.$X    3 '   c.p.  k $Xm.m.F.qXm.=X>XU.s.,XM W ;.A Y ^       E p.p.d.f i y T C @ d a ",
"o Z / }       d i >.B.C.  s.P.$X;Xj.@XwX9Xy.4X    ; =X;X      f e.z.x.f.z.=X-X>X  r 8XQ W b , ' zX;     z.=.-Xv.a.=.i.&.b . 3 d ",
"O C i u   Q   o.M U S.B.U   m.M.OXi.$X$X$XoXs.    7 e.9X' P.  4XW y.y.| s.M.R '   4.A.iX0X$.$.;.=.-     2X2Xs.s.M i R 4 4 7 K 3 ",
"c C +.    K   d M b N v.%XM   i.h.h.m.p.p.oXj.    M OXOX    wX@X' M s.z.s.s.E.r.=.    qXn.=Xh.c.M.b.      #X3 i f.|  .X.> +.S K ",
"> c b   Q #.  #.i.*.u j.m.' ;.  A ;.W M.M.oXc.    z Q   s.c.m.$.c.s.Q i I M.M.OXa.y.=.  T @X1XE.:X=X      S.E 3XW.(.} V O i G S ",
"8 8 8 8 i I   ;.;.I i i =.c.b.  - Q g.a v &.b.    O y   &.' f $.' ' #.@X#.v.c.$.E.M.$.  1Xs.rXrXP.6X7     x U s.' ^ 4     > > G ",
"6.`. XkX8 8 jX~.8 7                                                         i.A i.:Xm.:X  yX<XI.6Xl.3                           ",
"2 2.t 5     !.r 8                                                                                                               ",
"5.# 7.lX8.R.4.) ].8   [ =X0XdXcXbXtXxXuXcXiXa.sXsXcXeXy.,XNXNXcX/.hXhXvX'                                   Q.E.F.Q.,XqXuXm.9XO ",
"7.6 5 6.5.4.j.8 T.r   =.=.i.;.i.m.$Xm.,Xm.,XqXsX/.NXnXnXuXbX-XfXx.x.f m.uX;   W.cXtXiXBXNXNXNXbXfXfXl.cXtX8XcXcXdXuXE.a.v.$.i.9X",
"@ v p.$ J #.;.8 T.).@ p.j.i.$X$XM.s.$X$Xm.y.b.:XuXpX#X$X2X1X1Xm.7XK vXR.%XO   u.uXtXR.8XhXxXMX/.[ a.=Xc.>X=.N W   =.-X-.G.F.m.i.",
"O b b e B &.&XQ p.+   i.p.;.$X$XM.i.$X$X$X$X$X$X9XyX$X$XG.wXqX$Xe.N hXJ 8.    tXuX/.  V.V.(.tXl.- =XM.M.d.p.*.T   d =.{ E Q a.m.",
"* v ^ E J m E.m.:X    I   =.#.$X$Xi.;.j.$X$X$X$X$XG.$X$X9X=.:X' s =.I !.r X   8X      ..A.R.a.m.8X$Xi.y.v i.m.a.  &.' d.C.-.N a.",
"K.: U { p.z.E m.pX        Q #.$X$X$Xi.$X$Xm.$X$X$X$XF.$XyX>XOX0X9XN.@X'.|.    Q.  Q.A.| c.a.W ' ] R s.3 7 M.c.j.i.    n n B.N N ",
"X @ v M U R.-XR.yX    4   y #.h.$X$X$X$X$X,X$X$X$X$XaX$X$Xf W #.@Xs.i.i x.        A.Q.R.Q #.$.#.b & d i M p.j.I Q &.;.    c w N ",
"  u u b N P.d.s.0X    ;     ;.j.$X$X$Xi.$XG.6X$X$X$X$X$X$XoX$X$XI W r.wXd.;   s 7 z.P F.$.v.c.h.b M.W i.Q M d Q b &.M b u       ",
"  i v j.4 ;.& =.1X    2   a     h.$Xg.g.$Xv.uX$X$X$X$X$X$X$Xv.@XG.v.p.i.5X.     G.6X-XM t.#.#.h.c.h.' W Q I XXv c.#.M 4 z       ",
"  x % { i d ' G.qX    m M I i.  h.$Xg.  =.@XqX$X$Xs.$X$X$X@XM.c.1XE.d.G.&.+     =.0XtXy.#.#.#.W $.M s.s.$XE.' W i.G.U 8 i 7 4   ",
"  u Z S 4 p.W W yX    b.M I g.g.#.=.  U m -XW.E.$X$XG.f $X$Xv.p.1Xp.d.M gX    u.[ >X<XR.I { U U ;.;.;.' s.i s.r.#.{ E l.[ K K 4 ",
"+ c >.B.^ $X- W qX    :Xm.' $.&.Q   p.Q ] f.{   E c.Q @XM.b.$Xu.$Xd.{ =.pX    x.3 l.y.i 2X2X*XU ;.j.I I W h.$.$.M 7 =.] ] y.P K ",
"O c ~ -.F.G.;.v.gX    ;.=XI.$X    c.a.=.        o.Q b &Xb.=.s.P.z.M.h.&.@X    y.l.R f -X3X%XF.F.U i.' v.b $.I Q v 8 M d ] ] s P ",
"+ c F Z S.;.$Xs.:X    U W     b U b.c.&.  #.#.Y Y d b M.d.d.s.j.;.&X;Xj.$X    z.R.g a.V.W.W.R.W.d.=.U M M Q b b i & @ & ] M O s ",
"  4 @.<.S   N.O I     &.D.  i E N.' N   E j.4 &.u Q * f 3 j.f 3 ' ;.v.b.I     G.>X' M m.F.W.(.(.u.| { U i d S A #.i U U =.#.I O ",
"  5 Z u ; > i.#.z     ^     ; d.c.y.)   s U &.T T #.Y b o.&.T U 4 u z x 4     Q $Xc.m.G.Q.W.W.W.F.F.^ 4 @ y S p &.*.T T o.&.;.I ",
"  q , c y Z A h.4           M h.M.v.  4 s :.U S >.A x , 4                                 U U n F <.@.{ A.^.3 & u x b b C S x ;.",
"                                                                                                            |.0 q _ 5 . 5   + x ",
"3 ; @ ; 7 2 ; * 2 s i 3 2 2 2 . # @       $X  dXbXbX      v j.A I c.<Xs.$.wXqXG.yX$Xc.9X4.J 3 xXxX        j . O _ L 2.8 8 |./.+ ",
"&.W I $.P.i.=.f ;.p.R e.R K 9.$X=Xs.@Xs.1Xv.s.=.=XM.1X    p.G.I ;.: G.E.@XpXs.M.9XE.;.>XR 0X$XI N.I p.S.Q.R.3 i G.%X;.I 8 8 8 /.",
"T b   T m.E E   & I I M ' m.b.s.G.: j.* P.@X-Xs.M G.d.    s M p.Y : b i.b.M.y.c.i.i.G.I M.$Xv.m.H.* d S.d.v.C.A S.p.j.&.- $.i.8 ",
"C a M   s | f.O + I Q A U v.p.W C W E W r.s.M.P.j.M -X'   ; d A : U U U p.i.i.i.v =.p.A a Q I I I G.g ^ { C.j.g.I p.Q U 3 A C i.",
"4 * j - i s 7 /.- 3 , & y ' v z S $.y.&.u +.Q #.i =.M.m.  & ;.& S :.;.i.p.=.;.;.i.b.C b d Q d ; h.D.G.=.- s d Q u - u u M d b C ",
"b u # : : b M 4.i p p Q S ^ U -.U j.*.;.p.S U i b A s.    2 s : U ;.;.:.i.^ W i M h.p.d h T S i $.&.*.p.F <.b @.<.V./ ^ } , x x ",
">.T M 4 > z O 4.i b x T <.>.:.S - C Q Q Q b S y A W 7 A   i 4 b Q =.g.g.g.;.3 ; i.' W ' @ + b b Y =.;.>.Z u N <.F <.V } -.U 4 x ",
"A b U b 9 v 3 o p x x b / / U b ~ -.S u b l l b b #.p.    H.* p d U &.&.T :.A 3 s y b C y O O i C A T S x z B./ b U ( N } { 3 4 ",
"p.s U C d I @ A y p a b n n A :.i.-.v S ~ S i 3 C &.j.    T - p p C D S b Q b C * b b C   G - . b C C C x b ^ b b b <.V ( Q i 3 ",
"I 3 - D v 3 - S O u * : > w l S n - Z ~ G S y A T W ;     - y : x b C p b T c x y @ & & & n Z + u b x b S 3 y a p x <.V ! b a i ",
"z   b A 4 u O   O 0 - , 0 < + - O O i 3 * u i - C & .     x y & u x x O b x x x y 3 a U x Z @.+ O u > x b C     u y @ z S y @ a ",
"+ L O A i z &   & _ ^.; ~.  7 % v * 2.v M N , h ; # ;     u u y y p : * x p y b a i i S S Z H o , v @ & 8 '.8 8 c z $ 8 8 @ b @ ",
"2.K.) 0 ~.+ >   - - @ X 7.T.A.4 X.& _.!.0 0 - u b i x     u u u : , u c p C C i - : c c c l O   , ; J 8 _.].8 8 u 8.3.8 8 8 3 b ",
"; ; 6 1.5.O 5 5       @ K.X # 9 0.0.q _.2.K.X     o u     : u i p O @   & . . C b x c c Z - > O     @ 8 0.  6.}.. 5 L 2.8 8 8 8 ",
"VX; ; 6 1.5.O 5 5       @ K.X # 9 0.0.q _.2.K.X     o u     > u i p O @   & . . C b x c c Z - : O     8 8 8   6.}.. 5 L 2.L.5 8 "
};
