/* XPM */
static char *_4[] = {
/* columns rows colors chars-per-pixel */
"64 64 193 2 ",
"   c #0D0A08",
".  c #110E0B",
"X  c #111006",
"o  c #16120C",
"O  c #19150D",
"+  c #1D1A0C",
"@  c #171310",
"#  c #1B1611",
"$  c #1E1912",
"%  c #211E0C",
"&  c #231D14",
"*  c #281F16",
"=  c #261F19",
"-  c #281F18",
";  c #24210D",
":  c #29260D",
">  c #2D2A0D",
",  c #332E0E",
"<  c #35310E",
"1  c #39350E",
"2  c #3E3B0F",
"3  c #262113",
"4  c #2B2414",
"5  c #2E2913",
"6  c #272019",
"7  c #2C241B",
"8  c #2F281A",
"9  c #322C14",
"0  c #31271C",
"q  c #342A1C",
"w  c #392E1D",
"e  c #363113",
"r  c #3B3514",
"t  c #3E3912",
"y  c #373019",
"u  c #3C321C",
"i  c #3F3819",
"p  c #2F2720",
"a  c #312720",
"s  c #352B21",
"d  c #3A2E23",
"f  c #373021",
"g  c #3D3125",
"h  c #3E3328",
"j  c #423C14",
"k  c #41361E",
"l  c #443A1B",
"z  c #493E1D",
"x  c #423525",
"c  c #483723",
"v  c #463A23",
"b  c #4A3C25",
"n  c #433529",
"m  c #46392B",
"M  c #4B3C2C",
"N  c #503E2B",
"B  c #4D3E30",
"V  c #503F31",
"C  c #464114",
"Z  c #4B4414",
"A  c #4E4914",
"S  c #47401B",
"D  c #4C431B",
"F  c #4E481A",
"G  c #534B15",
"H  c #51461D",
"J  c #534B1B",
"K  c #594E1F",
"L  c #565015",
"P  c #5B5316",
"I  c #57511A",
"U  c #5B531B",
"Y  c #5D581A",
"T  c #61571E",
"R  c #635A1C",
"E  c #685E1C",
"W  c #666019",
"Q  c #6B621D",
"!  c #4D4222",
"~  c #4E412B",
"^  c #524524",
"/  c #564A23",
"(  c #5A4D25",
")  c #53422D",
"_  c #5A462D",
"`  c #564929",
"'  c #5C4B2C",
"]  c #5D5323",
"[  c #5B512A",
"{  c #4F4031",
"}  c #544331",
"|  c #554433",
" . c #544234",
".. c #564434",
"X. c #564635",
"o. c #544332",
"O. c #584632",
"+. c #594735",
"@. c #594634",
"#. c #574837",
"$. c #5B4831",
"%. c #5A4837",
"&. c #584837",
"*. c #5E4B36",
"=. c #5C4A34",
"-. c #5D4B38",
";. c #5F4C39",
":. c #5F4D3B",
">. c #5D4B39",
",. c #614D2E",
"<. c #615424",
"1. c #655924",
"2. c #685D22",
"3. c #63532C",
"4. c #69562E",
"5. c #6C5D2B",
"6. c #715E2F",
"7. c #624D35",
"8. c #614D39",
"9. c #624E3A",
"0. c #655134",
"q. c #6A5435",
"w. c #6C5935",
"e. c #65513B",
"r. c #6B563D",
"t. c #6B553C",
"y. c #6F593F",
"u. c #6E583D",
"i. c #715D34",
"p. c #71573B",
"a. c #725A3E",
"s. c #735B3D",
"d. c #785E3D",
"f. c #6D6322",
"g. c #726624",
"h. c #746A20",
"j. c #7D6F26",
"k. c #72622F",
"l. c #7F7322",
"z. c #756233",
"x. c #7A6536",
"c. c #7F6B36",
"v. c #756139",
"b. c #7B623E",
"n. c #6C5640",
"m. c #6F5940",
"M. c #6E5941",
"N. c #705740",
"B. c #715A41",
"V. c #735C41",
"C. c #765E41",
"Z. c #745C42",
"A. c #795F43",
"S. c #776042",
"D. c #776142",
"F. c #7A6145",
"G. c #7D6445",
"H. c #7C6244",
"J. c #7E6449",
"K. c #7F684A",
"L. c #887C27",
"P. c #8D7F2B",
"I. c #81643F",
"U. c #937C3C",
"Y. c #816645",
"T. c #856946",
"R. c #8A6C45",
"E. c #826648",
"W. c #856A4A",
"Q. c #8B6D4A",
"!. c #906F4A",
"~. c #8E704A",
"^. c #93734C",
"/. c #98774E",
"(. c #96784D",
"). c #9B7A4E",
"_. c #947451",
"`. c #997751",
"'. c #967852",
"]. c #9C7B51",
"[. c #A17D4F",
"{. c #A17E52",
"}. c #90832D",
"|. c #A58253",
" X c #A98555",
".X c #AD8956",
"XX c #A78558",
"oX c #AA8658",
"OX c #AE8A59",
"+X c #B48E57",
"@X c #B28D59",
"#X c #B7915B",
"$X c #BA945C",
/* pixels */
"@ O + 4 w - 6 q w g 8 7 - = $ 6 = 6 =.e.:.M h m d d 9 , j Z D z b ! J ! ~ x M h 7 $ & o & x | V 0 x M x 7 + : ; + J D y 9 = # o ",
"$ 6 $ 6 d s d n n m m d M  .x = m s M :.&. .n 0 m | g j Z j i ) s.e.s  .X.M =.:.:.w 0 x m M M M M n h  .n = e 3 w k y h 7 6 - # ",
"- = $ 7 h h h n M M x n | 9.n o d V d h h B M n M M q 5 y x $.M t.t.:.9.B.>.X.+.+.d w s.7.) O.} +.B m n h 6 3 x ) ) d q 7 s 7 q ",
"d d s h h n n M } m h M  .| h q 3 n m 6 q h  . .B +.g 5 $.q.s.$.C.t.B.H.H.m.9.X.X.h x G.C.V.9.&.9.| B m M q h M =.M d s 6 d g s ",
"6 s d g s B M h M d n >.X.n d h 9 D u & & 3 u d m M J b s.C.u.9.H.D.D.V.m.t.u.+.:.b D O.s.H.C.=.+.}  . .m = n n M h n n d 7 s 6 ",
"& 6 0 s 0 d s h n d { M n 0 n l 9 l 9 : r r R j 9 r 9 O.e.| e.H.W.E.C.q.G.C.M M b 4 < y e.W.C.X.n s n M 7 q n | O.d d d s 7 6 O ",
"& 6 h s h h 7 h 8 9 ) x u 8 g x 7.s.x ^ b.0./ ^ b <.l x e.e.A.Z.E.Q.G.s.*.~ u ^ l : < 9 ) e.>.9.=. .s u : = | e. .m n d 6 q d - ",
"o & 6 s q g ( 3.l & w q ` ) $.=.H.$.g T.Q.Q.T.R.R.E.i.8 d c m } r.t.=.$.! D f.Z A A : e D M =.e.=._ y Z r h V n n M  .M h & 8 $ ",
"x w + % , e j j ) C.u.7.r.u.A.E.H.M _ ~.^.(.~.R.^.H.t.} C.) h w g c l i E j 9 ; y i 3 5 3 l z z Z Y C t r q ) n u r b v 9 o O $ ",
"M h M m 0 : j v G.u.H.^.H.H.Q.~.s.0 *.H.Y.G.~.T.s.9.9.O.} t.A.$.9 c 9 w x O.0.M 7.+.X.=.d w 5 < e j r I I j j.Z ; , C 5 q x x s ",
"g h m } =.q < z =.e.Y.~.H.G.H.H.m 8 e.C.Q.^.A.s.C.r.E.r.9.e.w.~ ^ s.x M t.s.W.t.B.9.n.Z.N h 4 P u l 9 y 4 r f.A > 5 9 m m M n m ",
"{ X.} M e.7.9 A u x m _ 0._ D r l =.=.e.H.A.C.G.C.A.A.B.e.t.v C q.Y.) =.^.A.W.A.A.J.Z.H.t.n y v q.H.0.} M q 3 ; 9 D ) M n M n h ",
"m { X.m m $.D Z G 9 3 9 l l 1 : ' E.E.H.W.C.u.H.v.t.Z.E.A.i.<.J _ =.) Y.E.Q.E.E.W.e.9.t.A.e.6 M C.C.t.s.s.m { s 8 ; x } m M d h ",
"{ X. .m d f : l b v _ d.H.q.u 9 O.m.u.].^.W.H.q.H / 5.z.<.H 0.^.E._ N Y.Q.Q.B.W.A.r.r.9.Z.9.0 N T.T.s.t.} h  .h h 9 w ) h d M B ",
"h m n q y Z v r.B.e.7.B.B.m.e.m 8 d $.Y.W.H.H.q.K j U 6.x.s.H.^.W.Q.7.0.^.E.E.r.+.+.e.e.&.d 7.C.7.e.&.r.=.=.:.B B 8 x *.{ m m d ",
"7 6 3 u 5 ! >.>.9.e. .B.t.B Z.7.,.3.i x x m x j Z u ,.H.!.).^.W.Y.^.s.m I.t.H.H.H.t.4.( } g d.Q.H.7._ =.e.t. . .+.v b } >.M 6 7 ",
"$ ; r t j y &.} >.h m B.9.B.E.' 1.v 7.d.H.T.H.H.^ b d.b.!.H.^.|.].H.x H b t.Y.(.Q.Q.q.~ s.w =.C.Q.q.) d M m h B s F 4 w g m d s ",
"% % % % r , l ( ^ ' ) n.m.t.r./ ( D.].W.|.OX].Q.s.^ u p.R.R.^.s.=.8 y U D u ) e.7.=.g d d q 0 M 9.Z.t.m M M h x w J j r 4 4 9 o ",
"q d d M v c y t J g.1.w.7.x x ^ d.).|.{.|.@XOX^.H.Y.s.=.v $.c 0 m b ( R.3.( z k ) =._ 7.7.q.7.,.b ) ) ) w y H Z K Z D l q l %   ",
"h  .e.p.r.+.=.u 4 i F e l c c c _ H.|. X).OXOX|.(.(.(.W.c =.p.d.{.(.s.|.R.e.( ^ ).Q.).].|.|./.^.Y.C.r.B.V._ C r f ) 7.t.t.n 7 = ",
"d V | O.r.X.| >.) q q v q.^.Z.O.x =.^.^.^.^.Q.Y.3.v.3.( 0.].|.R.|.|.~.].~.D.x ' (.|.(.). X^.Q.^.B.r.H.J.Z.M + q } =.7.+.=.d s h ",
"d d d +.+.M +.n.r.x 7.s.W.W.9.>.) x _ b.w.i.U.b.H C e z ^.^. X XOX#XOX).Y.~.x q.OX XQ.[.{.|.|._.B.Z.H.W.B.n y ) r.=.x | M h g s ",
"s n n B B M X.B s g O.J.Z.E.B.t.H.x 9 J i j 1.,.4.4.' ^ !.].#X|.|.$X+XOX).H.M t.{.{.{.).{.].].E.B.W.n.9.h } y l O.} M h a h m 7 ",
"6 h h 0  .+.M s d ) 9.9. .B.t.B.H.t./ q.(. X^.!.|.R.^.7.s.].Q.^.].#X$X@X].b.g q./.oX@X+X{.~.(.Q.W.W.+.} ^ M 3 9 5 x x = 8 n d d ",
"= = 3 s s  .|  .x 3.Z.9.B.=.n 7.x ! g.Y.].|.^.).oXW.^.).7.t.C.Q.G.OX XH.R.i.9 0.i.^.OX).^.{.).G.Y.&.} *.8 & 9 l r 4 = q + s s h ",
"o : J 5 3 q u u r 2.w.:.:.9.*._ 0 9 ! W.^.Q.Q.^.{.(.^.^.]._ b.^.Q.].q./ <.J g.P.5.I.b.t.b.).s.q.r.t.M # = M _ q.t._ w g g & o o ",
"$ O 1 K f.! ( D Z L j ] 5.0.m m 9 k x (. X@XOXW.). X{.].{.]._ t.7.0.l 9 W P A Y Z ^ / M ' ' m $.h m 0 c t.T.].(.H.e.t.=.=.M - # ",
"w & 9 u i =.s.q.` e : j I ! _ _ =.q.x p.^.(./.(.@X@X].^.)./.Y.c u ( x./ <.g.A f.L.j 2 : 9 k ,.N g ) 0.(.H.^.(.H.A.C.Z.X.m h n x ",
"s h n d q O.=.r.7.S m  .9.E.(.Q.G.W.t._ (.R.].|.|.|./.H.W.^.Q.^ 0. X#X).H.i.q.0.' A j M 9.t.E.9.| N _ (.(.E.Y.A.C.e.n.9. .>.n d ",
"d M  .} } u.E.H.m w 9.Z.H.H.E.Z.C.Q.Y.u b q. XOX|.~.(.^.s.R.c w R.(.Q.~.E.(./._._.` ( t.e.r.=...9.=._ ).Q.C.n.A.r.C.e.M n M m m ",
"d M X.&.9.Y.H.t.M m n.Q.E.E.W.A.C.E.B.1.T i.).).|.R.( ^ k.f.! s.R.Q.E.^.{.^.^.].'.Q._ $.| >.9. . .h x !.W.E.Y.s.>.r.M M M s h n ",
"h h n } e.9.9.B.) e.E.G.Z.C.q.&.} s.w.^ G l.! w.x.w.j A G D ~.|.|.(.].(.).|.^.W.Q.G.x k d >. ... .x w Q.(.Q.A.B.9. .m d h g s & ",
"7 7 s { =.=.=.e.q r.C.s.G.t.( U K D D e y / J g.Q f.A 1 C '  X{.OX X[.^.^.].H.C.W.t.b D z x v >.) ( / Y.A.t.t.e. .t.>.n h q 6 = ",
"3 9 s d h m c 8 o s $.u.i.w.D I g.6.R.Y.(.OX].p.4.l 5 , L ( d.).).|.|.).H.u.r.q.q.t.b 1 A j g.~ l P H p.e.t.Y.C.*.t.+.9.X.7 s 7 ",
"& 9 d d g ) 7.M x d = 5 l Y S w u.Q.Y.H.Q.|.`.W.Y.7.w.! D ^ x t.b.H.(.~.Y.s.C.7.g =.v.q.,.( D D D t j D 3.=.u.e.0. .} =.h 6 d & ",
"& g =.&. .=.+.&.+.| m u j D i.C.Q._.G.B.Q.^.~.`.^.Q.^.=.b 0.=.` ^ ) g g M x w 8 0.Q.Q.(.^.T.p.s.t.v > > E r = q f s 6 s - # & O ",
"m n n d  .B n n 9.Z.>.l i b t.*.t.H.m.u.H.W.Q.].].W.W.t._ T.].(.R.~.p.m ) w c ) ~.H.s.~.A.Q.T.E.W.9.) v u j j 7 $ 7 w 8 M m = $ ",
"n s 7 s M +.M d M 9. .J v ~ D.s.r.n.e.Y.Q._._.(.^.W./.) H.s.R.(.^.Q.].E.s.T.7.H.OX].H.W.).].W.W.r.e.s.B.e.7.D b M N %.=.| n d q ",
"s d n M ..n s M n x 3 H 0.0.v.V.9.J.H.Q.].{._.J.Q.W.C.^ ^.].^.Q.(.W.W.G.G.W.) =.^.C.W.].{.|.~.H.t.u.e.e.m.e.9 m +.=.7.+.B m B M ",
"7 B m m M a 7 d q w < I c.q.u $.H.W.W.J.J.Q.J.H.^.Q.M _ Q.].XX{.].Y.e.F.s.} u u g s.{.[.^.).(.Q.Q.Q.9. .+.h 7 O.M +. . .M h n h ",
"6 s s n d q i 9 9 i j Z K w.) H.Q.(.(.W.W.m.&.u.7.7.7 s.W.Q.{._.].^.Q.H.e.&.( 2.x T.^.Q.W.).~.r.e.t. .>.e.X.z c %.9.B M m h 7 - ",
"O & 5 l 9 5 > C L J <.9 3 q x O.7.H.W.Y.Y.s.s.| H y 0 =.A.Q.W.^.XX].].E.t.K.b G c ) H.r.C.r.n.n.e.n.X.:.9. .j r v ) M h a d 7 a ",
"& % 9 j Z < ; G K ( d.R.p.=._ c q 7 h m =._ ^ 9 Z H ) Y.B.n.H.^.].].W.9.H.e.9 J q.q.b.q.e.e.m.t.9.Z.e.n B x r I T / b v a 8 q s ",
"} } M u 6 r j r v $.e.s.C.H.G.C.H.h 8 8 u l ^ x.i.,.g m M } _ 9.r.e.n.m.9.M w U u w 8 M 7.Y.C.7. .9...B h d j t J f.P l y $ # o ",
"M M  .$.q.] S O.7.} | B.C.t.B.B.t.r.t.w ] z.(.].Q.C.Y.R.^ x 0 6 8 u ) v / D j G % S z 6 5 w c q = g u u i % ; 5 O + ; + + 5 w g ",
"| 7.| } 7.q k e.O.| e. .n.H.C.9.e.Q.E.' ( s.R.).(.Q.|.).Q.R.Y.s.q.D D G A L G C Z Q Z S i 7 M m ) x l x v x q c w x m m x n M n ",
"M &.=.) =._ = h _ | >.e.r.r.B.B.n.C.E._ q.{.|.OX|. X).R.R.OXOX XT.=.m y r G R }.E D 7.E.s.r.A.Z.A.9.d X.M x q = ) *.) O.) x d h ",
"d h &.&.0.s.d d e.B :.m.n.r.e.e.X.d  .u d.Q.Q._.[.).^.(.).].|.^.H.Y.t.7.) j I Y D ! s.p.r.Y.A.m.9.+.M e.n.Z.M 0 p.s.s.e.7. .d s ",
"d h M o.*.n m 6 n t.t.X.B.V.t.t.u.q i H T.H.C.^.T.^.W.^.H.Q.W.C.Q.Q.H.Q.H.! j ) M +.=.Z.:.t.9.9.&.+.e.>.:.B.X.q q.p.t.e.e.M s 0 ",
"d s 7 M M M =.8 0 ~ m B e.M _ z.0.l G ! ).[.[.Q.T.Y.C.C.s.W.C.e.Q.).(.W.E.) u T.Y.H.B.:.9.&.9.e.>.+...M  . .s r v 0.t.r.&.M h 8 ",
"s 0 s n n  .&.6 q m q M { ~ K h.I J I k 7.T.~.C.9.H.r.B.H.W.B.e.e.Q.Q.G.V.=.d Y.C.C.t.} e.B.9.=. .M  .&.B w = l 9 0.e.e.&.M m g ",
"# q D g M v 9 $ q q y l 9 j U U r r : g } } Y.A.G.W.W.Y.H.H.C.e.X.e.G.H.m.t.0 _ M q.e.X.e.e.n h n V  .B s 7 5 : r s  .M { h M +.",
"% > : Z T z l q ) q.' 0.7.w q 8 6 5 t 9 <.) H.V.G.Q.Q.G.Z.7.*.e.$.e.*.=.c ( j U J z 9.&.>.| g &.+.M ..s 3 i 3 < i l h d n n h m ",
"6 $ & 5 e m M d ) b.q.H.T.I.b.I.7.g g 9 r 6 x 7.t.t.Z.Z.n.m e.H.0.) O.M l t 1 t A r H v h s g M M M m s 5 K G G Z j 3 3 h h - $ ",
"0 s d 7 6 h M d b s.H.H.b.R.(.H.t.&.s.=.7.c 6 = q M  .*. .= q ) M m x q w ^ u y 4 : j y + = = . & # : K e 1 A C A 1 1 > + $ o . ",
"s h n n g 8 7 = ^ s.Y.s.q.d.H.r.u.s.s.s.H.Y.q.8 q 8 & 6 u ' ' g = w w 7.r.Z.7.=.) 7 8 M m x q g 6 9 G A Z 1 t Z > e ; 9 9 8 6 o ",
"d d h M h f g $ m q.s.e.=.9.X.9.r.e.9.7. .e. .d w b c ^ p.Y.Y.B.e.x N t.s.| m &.+.n M } =.=.=.} n 9 j 3 r i ` l & 5 7 h f d 7 $ ",
"h h m M M +.=.= v } &.e.r.&.h M | M M t.>.h x O.9 ` p._ s.s.m.Y.r.$.) s.r.+.+. .h B O.m X.9.=.n 0 + ; h d x ) g x m n h h g s # ",
"7 s h h M  .n & s M M ) +.=.9.} m n M  .M n t.M # M t._ s.H.B.e.e.) d 9.| M ..n x | M h a M d 6 7 & & x x n x x m m m h h s d - ",
"s 7 6 g m m 7 w M :.M m m M e.+.m :.M h B ~ &.x u =.0.H.C.V.Y.t.9.m & d n B 9.X.M M h M h s h d h s $ m ) m } m h n h s s 6 7 7 ",
"& & 7 d d x 6 0 B n m M d q n d d B d h n [ x D 1.=.u.H.u.s.s.>.&.*.* = B n  .m s s M  . .M n s h s o 9 8 h M B M h d s - s a - ",
"& $ 5 q 3 o o $ d d B s 8 w 8 6 u h 9 l K 1.Z j D } B.} +.{ M X.&. .q q M h d s s d d n n h n n h 9 e r 6 n { X.B h h s - n 6 - ",
"X + % t e : < r 4 6 n s 6 6 h 9 + e l T I j < : 4 v h n >. .B M h M 0 7 x s s 0 d n d B n m B g h 9 j < j w d n d s p 7 6 7 @ o ",
"# O o o ; : , : , X . 5 8 6 - & + % % ; o + + t 3 O o 7 M X.m d d q & O & o # # $ s 0 - 7 M d 7 6 + ; + e % o 8 # . . . . . . . "
};
