/* XPM */
static char *_5[] = {
/* columns rows colors chars-per-pixel */
"64 64 200 2 ",
"   c #020101",
".  c #090604",
"X  c #0D0906",
"o  c #0F0B08",
"O  c #130B06",
"+  c #190D07",
"@  c #130D09",
"#  c #1A0E09",
"$  c #1B1207",
"%  c #16100B",
"&  c #1B120C",
"*  c #1E1610",
"=  c #200F08",
"-  c #241307",
";  c #2A1507",
":  c #23150C",
">  c #2A160B",
",  c #25180E",
"<  c #2B1A0D",
"1  c #321907",
"2  c #331D0D",
"3  c #3B1F0A",
"4  c #35160A",
"5  c #211710",
"6  c #251911",
"7  c #2A1E14",
"8  c #2B1C12",
"9  c #311E12",
"0  c #381E11",
"q  c #36210E",
"w  c #3B220E",
"e  c #2D2115",
"r  c #2B2014",
"t  c #352315",
"y  c #342213",
"u  c #3C2514",
"i  c #3E2916",
"p  c #342718",
"a  c #3A291A",
"s  c #3C2D1C",
"d  c #382819",
"f  c #421C0D",
"g  c #43250E",
"h  c #4B260A",
"j  c #51240E",
"k  c #432612",
"l  c #432A14",
"z  c #4B2D14",
"x  c #442B19",
"c  c #4A2E1A",
"v  c #532D14",
"b  c #572F18",
"n  c #4D3114",
"m  c #4D311B",
"M  c #433019",
"N  c #543315",
"B  c #5B3415",
"V  c #5C3916",
"C  c #54341B",
"Z  c #5A361B",
"A  c #5D3B1C",
"S  c #573916",
"D  c #622E12",
"F  c #633415",
"G  c #643C16",
"H  c #6C3A16",
"J  c #653D1D",
"K  c #6A3D1B",
"L  c #683215",
"P  c #703F18",
"I  c #7C3D19",
"U  c #4B3B25",
"Y  c #523C25",
"T  c #5D3D21",
"R  c #553F28",
"E  c #633E20",
"W  c #683F20",
"Q  c #5F401D",
"!  c #6C4015",
"~  c #65431C",
"^  c #6B431D",
"/  c #684518",
"(  c #724416",
")  c #74441B",
"_  c #7A471C",
"`  c #73491D",
"'  c #7B4C1B",
"]  c #744914",
"[  c #7A531B",
"{  c #75511D",
"}  c #4F432D",
"|  c #5E452A",
" . c #5A4B35",
".. c #664222",
"X. c #6C4222",
"o. c #614629",
"O. c #654B2E",
"+. c #6E4C29",
"@. c #6B4A27",
"#. c #724621",
"$. c #744A22",
"%. c #7D4B22",
"&. c #754D28",
"*. c #7C5524",
"=. c #7E5A22",
"-. c #70522D",
";. c #7A552C",
":. c #755220",
">. c #6A4E30",
",. c #6E5930",
"<. c #7C5C34",
"1. c #7F653D",
"2. c #81471C",
"3. c #814B1D",
"4. c #8A4D1C",
"5. c #82511E",
"6. c #8C531D",
"7. c #8C5B1B",
"8. c #835D1C",
"9. c #99561F",
"0. c #97581F",
"q. c #9A5B1F",
"w. c #95531F",
"e. c #A55B1E",
"r. c #97681B",
"t. c #A8631E",
"y. c #A2741F",
"u. c #854E22",
"i. c #845124",
"p. c #8B5322",
"a. c #825B2E",
"s. c #875C28",
"d. c #925523",
"f. c #955A23",
"g. c #9A5B23",
"h. c #995E2B",
"j. c #835E31",
"k. c #A55F23",
"l. c #8B6327",
"z. c #9C6121",
"x. c #986923",
"c. c #977027",
"v. c #9A7427",
"b. c #896133",
"n. c #8F6A38",
"m. c #8A643E",
"M. c #956E3B",
"N. c #98723C",
"B. c #A26324",
"V. c #AC6423",
"C. c #A36D24",
"Z. c #AD6A2B",
"A. c #A86925",
"S. c #B46B25",
"D. c #B86F28",
"F. c #B66E28",
"G. c #A67022",
"H. c #A97C22",
"J. c #B17B26",
"K. c #BA7C21",
"L. c #B87729",
"P. c #C47A23",
"I. c #9A7942",
"U. c #A57D45",
"Y. c #A67F48",
"T. c #AA8321",
"R. c #B78528",
"E. c #B98F30",
"W. c #BA9736",
"Q. c #C3862D",
"!. c #D48B2E",
"~. c #D99330",
"^. c #DFA731",
"/. c #D4AB39",
"(. c #AE8244",
"). c #A2834B",
"_. c #AC8648",
"`. c #A78246",
"'. c #BE8F4D",
"]. c #B6904F",
"[. c #C0944E",
"{. c #C79F55",
"}. c #C19452",
"|. c #CFAE46",
" X c #CAA25A",
".X c #D3AA5E",
"XX c #D6A95A",
"oX c #ECAF41",
"OX c #E6B547",
"+X c #E2B15D",
"@X c #C5A661",
"#X c #CFB169",
"$X c #DABD67",
"%X c #C0AC73",
"&X c #C5B276",
"*X c #D3BE78",
"=X c #ECC369",
"-X c #C5B786",
";X c #F2DF81",
":X c #F4E69B",
/* pixels */
"                                                                                                                                ",
"                                                                                                                                ",
"                                                                                                                                ",
"                                                .                                                                               ",
"                                                . @                                                                             ",
"                                                @ * .                                         X .                               ",
"                                            X r s 7                                         o &                                 ",
"                                          % m o.U X                 .                       6 7 X                               ",
"                                        X s o.O.&           . . O X O O . . .               p Y d .                             ",
"                                        % s Y o.s X . . . . O O O + O O O O O . .           & >.| r                             ",
"                                        X r s M r & 6 & & @ X O O # # # + # O X O O . . . X p O.| s .                           ",
"                                          X & & @ @ * & & + + # # - > > - - # . @ 5 & 6 & r R Y s p .                           ",
"                                              . o & & o @ & : 6 + # # # # # & % @ & @ & @ + 6 7 6 O                             ",
"                                                O # + X X & s m y : & & : t d 6 @ o o & @ X X X                                 ",
"                                            . O + O X   . : z C m t s y x c t & . X + # X . .                                   ",
"                                        . O O O + X . . & u f.s.9 8 u 6 x m.E & . . X + # O . . .                               ",
"                                      . X X O O O X . # # 8 u 0 t m m s u X.c 8 X . . O + O O + O .                             ",
"                                    . . X # + . O O X - - O : @ & 7 7 6 @ & & O # . . O O # # O O O .                           ",
"                                    O O X X O O # O   O - O + o o @ @ o o % O - - O X # O # O X X . .                           ",
"                                  . O + # + # X . . . . O # O % 7 : , & X + # = + . . O O X . + # + + .       . .         . . . ",
"                                  . O O + # + X O X X X . + % i t 8 y i t + + . . X . . . # : : : & & +       O $ $ O     . . . ",
".                                   . X X X X # : + @ + . O # & % # # : : # . X & % . + # : < < < > # + .                   . . ",
". . .         . . .             . O . . . O @ & < & @ + @ O + - - - - - + O X @ + @ % > : & : : & : + + O .               . . . ",
". X X . . .   $ $ $ .         . . + + X . @ @ # : : & & % X O # - - - + X . + + + & > < < % X O X @ O O X X .             . .   ",
". X . . X .             . . X X . . X X . . X + & : : & # & O + & # + . . + @ @ - > : : # .   . # : & & O X O           . . . . ",
"@ o X X .               . . X X . X . . .   . O O % < : - : - % % % # + # # + & : % + X . . . X % & & @ O . O .       . X X X X ",
"@ X @ @ X             . . X . . . O X . . . . + O $ ; 3 g 2 : < < 8 9 , : : : : & # + @ X .   . o o o X O O X X .     . o X X . ",
"X o @ @ .           . X O O .   . O + X X X O + 1 3 h h h 1 + - 2 u x y < < < : : % + O X . .   . . . O + O . . .       o @ o o ",
"% * & & X             . . .     . O + & + + - ; - 2 A b.b.-.;.A g q u l i y < < : & + @ X . . . . X O X . . X + X .     @ % % % ",
"% & & & .             . . .   . . O X + + & ; ; ; a.XXXX X{.XX(.N w l ~ n l u 2 < - & & + . . . . . . . + X X @ X .     @ + % @ ",
"& & + & X     .           . . . . X + + & : - O u '.I.<. X_.1.].a.z z A N z l u u y < : % O . . . . . O X . X . . .   . & & & , ",
"6 7 & 7 @   . . .         . . X X O + - > 2 : < u [.%X-X.X.X-X&XU.;.~ n C K X.A n z u 9 - & + + X . . X @ @ @ # O X   . % 6 % & ",
"7 7 @ 6 X   . . .       . O O O + + - 2 g z z *.X.(.#X&X.X X@X$X`.;.Q l c X.T A z B G x 2 - # + X X X # # X . O @ X X . @ % @ @ ",
"6 * @ & .   . . . . . . . O + + - < < q z B B V ^ ..+X=X XY.). XN.k l M l Z c x u N _ G l < > - + O O & X . . + X X X . % & @ o ",
"@ & & & X   . . . . . . . X X O : < 2 q q 4 2 2 : + n.I.U  .} ,...D l l z ` J S ` ^ ` K B l q > # O O O X . O X . X . . 6 5 % @ ",
"o & 6 6 %   . X % + % X X X O + - < 4 > ; : q 2 : + < x <.)._.@.F H N Z Z S { / S 5.` _ ) ! z z u q - X X . . . . .   . & & & @ ",
"@ @ & 6 % . . % y - q X X X + + & < - : < 9 8 & # ; 4 f b A B I I Z ^ A A l :.l.Q V A ' 6.6.B S l q & X X . . . . .     & & + X ",
"o @ & & X . . . X X X X O X O # : < > < 9 8 & X X # < f j v D L B J $.A n n [ x.G N G ' 6.3.V N l : % O O < % < X . . . 6 8 : + ",
"% & 6 6 X . . . X X X X & % : - & ; > - O X # 2 w - : z v b ;.-.A ) h.^ ] / ! r.6.5.7.7.z.g._ G N 2 : & + + O O . . . . : 7 8 & ",
"& & 6 7 X . . . X X X X & & - - & < 2 < O # : v ( < t b.M.<. XU.J u.Z.l.r.x.!.oXOX~.G.H.G.P.t.2.G z < - + + O X X . . . , 6 7 & ",
"% % & 6 @ . X X X X X X X X @ & ; < q > : 9 < z ! < y <.U.I.}.(.&.u.A.C.T.J.^.;X:XOXQ.W.r.K.P.9.) B w < - # + @ @ X . . : & & % ",
"o o % % X . X @ o @ X X X @ % : < : < q w w N ( q . O x +.j.j.;...K g.z.y.E./.$X*X|.R.R.[ 3.S.9.) v h 3 - # % + X X . X & & & % ",
"o & & % X . X X X @ + @ O @ + & - : < u z B V q . . 6 y y i z n z K p.6.] G.[ [ v.[ n [ ! ) q.4.P v k 2 > & % + O @ . X , & + % ",
"@ % @ @ o . X . X o @ + + + % & : < u z z q # .   . + u T +.m 2 z i.h.3.J G V V ~ ~ $.! l 6.9.4.) B k 9 : & & % O O . X & % @ @ ",
"@ % X X X . o X O & % + + % & & 8 u z z < X   . g < X < z x , : u l l N f.V u / *.=.*.n y ' V.2.H b u 8 : & % & + o @ + @ + + X ",
"o X . . $ < l y + % @ @ % % & , 8 u z k . X ; G k.N : l F q N z ; < 2 k z.) w z { c.l.8.6.e.w.K N z u 8 6 & & : & + % & + $ $ X ",
". . X . % C ^ ~ , @ @ + : 6 8 9 u u z < O z ' g.S.G > b B l A.z.- % : 2 6.B.z.C.J.R.K.K.t.2.K C z u u t 6 & % % % + @ X X X . . ",
". . O . . : & 8 2 & & & & : 8 t x m A x z %.p.g.V.! & k l z D.B.- + + : _ d.d.f.g.k.g.p.3.K C m c x u 8 7 8 & , A #.A 8 + . X X ",
"    . .   X + & : & 6 8 8 y u x x c C Z K ) u.d.k._ + & : 2 A.q.+ X q _ f.p.i.u.u.u.3.) ^ Z C C c m i u y y - ~ L.A.$.x + X . . ",
"  . . X + @ O @ & 5 8 t t u c c m x C J #.%.u.d.g.d.$ O > < ' S.n q 0.S.g.g.d.p.d.i.%.#.#.J C C C m x u y < , y N u 9 # .       ",
"      X 8 6 & , 8 7 m c t u u u x c c C Z A ) _ 3.p.> X O + ! F.D.B.B.S.Z.A.B.f.f.g.p.i.^ J E X...A Z m x u < u 2 : & O         ",
"      . X X O + & & u i c C C c c x x x x x u k z N l < O : z p.p.) u.p.p.p.p.i.p.i.i.p.%.#.#.X.m x t t 8 9 : < y O . . . X . . ",
"    . . . . @ + + & : 8 y u u t 8 & : & : 8 8 < < < < + X - < u x C N z C J J Z C n C C C C C m c m C c u t y 7 % + @ o & # . . ",
"        . . X @ + % & : 6 , , & 8 8 9 9 < , : & : - % X . . + < y i z m #.#.X.E C y m A X.X.X.E X.E A c u y 8 6 & % o X % X .   ",
"        . . . X @ + & : 6 7 8 % 8 u x x x u x x x 9 8 y 9 u Z C Z A E A E A E Z m u x m X.E Z c x u t 8 7 8 9 : & % + X . .     ",
"  X .   .   . . X X O + & % : & % & , 8 y u 9 y y t u m x c C x u u c A ~ #.X.E A C m x u y 8 : , 8 & % % % y x : . . . . . .   ",
"          . . . . . . X @ % & 6 : 8 y t i u y x x x c m x u y & y C E X.X...E C x x c x x u 8 : & % & , & % + + . . X X . .     ",
"            . . . . X . X % & : & : , 8 : : , 9 t u u x x i u : & 9 y t t 7 y y y 8 8 7 , & & @ + + + X . . X .   . X X . .   . ",
"            . X o o @ % X . X @ & & & 6 , : 8 6 : , : 8 6 + & 6 8 8 8 , & : & & & + + % O % % & % & + X X X . . . . . .     . . ",
"          . X o X X X & 5 X X . X X O @ @ @ & : , & & & X @ & 5 & & : & & + & & & + @ o X @ @ X X @ X X X X . . X X . . .       ",
"              X X X X X + X X X . @ X . . X @ X X % : 6 & & & + + X o @ + @ + + % & & @ X @ X . . .       . . .   . . . .       ",
"                  . . . .   . . . O . X % & : 6 6 5 6 6 & & & & 6 & + @ X X : 6 6 6 6 & + + + o . X . . . . . . . . . .         ",
"                          . . X X . . X % + + & & + + @ @ + @ + % + @ + o . X @ O X X X X . . . . . . . . . . . . . .           ",
"                        . . . .   . . . X X . . X o X X X o @ o o o . . . .   . . . X . . . . . . . . . . . . . . .             "
};
