/* XPM */
static char *_6[] = {
/* columns rows colors chars-per-pixel */
"64 21 210 2 ",
"   c black",
".  c #080705",
"X  c #110E09",
"o  c #15120A",
"O  c #1A150D",
"+  c #1E190D",
"@  c #181607",
"#  c #1F1910",
"$  c #221C0D",
"%  c #261E09",
"&  c #251C12",
"*  c #291F13",
"=  c #331F10",
"-  c #26210A",
";  c #2B260B",
":  c #2D290A",
">  c #342C0D",
",  c #30260F",
"<  c #3A350D",
"1  c #2C2214",
"2  c #272112",
"3  c #332515",
"4  c #332A13",
"5  c #392C13",
"6  c #332618",
"7  c #362919",
"8  c #3B2B1B",
"9  c #382413",
"0  c #3C3314",
"q  c #000027",
"w  c #00002E",
"e  c #2C0023",
"r  c #482A0B",
"t  c #433B0D",
"y  c #442C15",
"u  c #422E1C",
"i  c #492C13",
"p  c #43321D",
"a  c #4B321C",
"s  c #493717",
"d  c #53371D",
"f  c #55391C",
"g  c #593A18",
"h  c #53340D",
"j  c #603E14",
"k  c #453320",
"l  c #4B3621",
"z  c #4E3823",
"x  c #533A23",
"c  c #5A3E25",
"v  c #553A24",
"b  c #4E4314",
"n  c #5E431C",
"m  c #584916",
"M  c #514812",
"N  c #6B450E",
"B  c #64431B",
"V  c #69451B",
"C  c #684615",
"Z  c #734E19",
"A  c #704E16",
"S  c #69541C",
"D  c #785419",
"F  c #72490D",
"G  c #7A641F",
"H  c #5C4127",
"J  c #5D4229",
"K  c #564323",
"L  c #624223",
"P  c #65452A",
"I  c #6B4C2C",
"U  c #664C25",
"Y  c #6C5327",
"T  c #71532E",
"R  c #745B23",
"E  c #755432",
"W  c #7D6623",
"Q  c #796226",
"!  c #FF0100",
"~  c #FF0B00",
"^  c #FF1100",
"/  c #FF2000",
"(  c #FF2C00",
")  c #FF3300",
"_  c #845C19",
"`  c #94691B",
"'  c #9B741F",
"]  c #A3791E",
"[  c #835E23",
"{  c #836B23",
"}  c #886A28",
"|  c #936D21",
" . c #8B7225",
".. c #947A24",
"X. c #9A7C2B",
"o. c #957729",
"O. c #967732",
"+. c #A57D28",
"@. c #F74B00",
"#. c #FF5C01",
"$. c #FF5400",
"%. c #FF6A00",
"&. c #FF7400",
"*. c #FF7C00",
"=. c #894E49",
"-. c #B8891D",
";. c #9E8229",
":. c #9E833D",
">. c #AD8D2C",
",. c #A78528",
"<. c #B08B2A",
"1. c #B8972C",
"2. c #A78838",
"3. c #B28D34",
"4. c #B99536",
"5. c #AF9128",
"6. c #FF8300",
"7. c #FF8F00",
"8. c #FF9600",
"9. c #FF9A00",
"0. c #FB9705",
"q. c #FFA500",
"w. c #FEAA05",
"e. c #FFB909",
"r. c #FBAD19",
"t. c #FFB816",
"y. c #C69B2A",
"u. c #C39D38",
"i. c #D4A92E",
"p. c #CAA536",
"a. c #D6AB37",
"s. c #DDB53B",
"d. c #C3A12A",
"f. c #E3B837",
"g. c #EEB925",
"h. c #FFC600",
"j. c #FFCF00",
"k. c #FFCB0E",
"l. c #FEDB00",
"z. c #FCD60C",
"x. c #FECC14",
"c. c #FFCA1A",
"v. c #FFC31C",
"b. c #FFEB08",
"n. c #FFF501",
"m. c #FFFF00",
"M. c #FFFF10",
"N. c #FFFF1E",
"B. c #FFF017",
"V. c #FDCC2B",
"C. c #FDC526",
"Z. c #FDCB33",
"A. c #FECD3C",
"S. c #FBC53C",
"D. c #FED334",
"F. c #FFD836",
"G. c #FFD33D",
"H. c #FFDB3C",
"J. c #F0C734",
"K. c #FFE126",
"L. c #FFFF25",
"P. c #FFFF2A",
"I. c #FFF529",
"U. c #FFE534",
"Y. c #FFE23C",
"T. c #FFED3D",
"R. c #FFFF34",
"E. c #FFFF3C",
"W. c #B9A14E",
"Q. c #C99F40",
"!. c #DBB443",
"~. c #CDAD4A",
"^. c #F1BD4C",
"/. c #C89B64",
"(. c #DDC452",
"). c #FDCD41",
"_. c #FECF49",
"`. c #FED342",
"'. c #FEDB43",
"]. c #FEDD4A",
"[. c #E8C64A",
"{. c #FFE740",
"}. c #FFEB42",
"|. c #FCE24B",
" X c #FFF245",
".X c #FFFD46",
"XX c #FFFE4A",
"oX c #FFFF53",
"OX c #FFFF5C",
"+X c #FFE755",
"@X c #FFCB72",
"#X c #F4CC66",
"$X c #FFFF64",
"%X c #FFFF6B",
"&X c #FFFF73",
"*X c #FFFF7C",
"=X c #FFEC65",
"-X c #FF758F",
";X c #FFFF84",
":X c #FFFF8C",
">X c #FFFF9C",
",X c #FFFFA4",
"<X c #FDFFAD",
"1X c #FFFFB0",
"2X c #FF99C0",
"3X c #FFFFC2",
"4X c #FFFFD4",
"5X c #FFFFD8",
"6X c #FFFFF6",
"7X c #FFFFFF",
/* pixels */
"                            m.m.m.m.m.m.m.m.6.! h.m.m.m.                                                                        ",
"            ! *.%.x.C.G.G.A.A.).A.A.A.A.).G.G.`.`.`.`.`.`.G.'.H.`.).G.A.).).A.A.G.'.'.].F.A.D.G.G.G.A.'.G.D.D.e.P.~             ",
"          k.j.D.]._.=X  7X;X&X*X&X$X&X%X*X$XoXXXR.E.R.E.L.M.XXN.$X&XXXL.$X;X&X%X,X7X7X7X  q 7X6X<X<X>X7X7Xw /.+XK.7Xe.          ",
"        e.0.@Xg.oXXXT.p.p.u.>... .,.......1.u.u.4.3.Q.u.~.!.s.s.4.4.4.p.4.3.>.>.1.1.u.1.f.J.s.1.;.5.i.d.p.a.F.U.r.'.7Xm.        ",
"      n.h.4XZ.{.>.Q R p x z 4 0 < t t < 4 5 K I E T I I I I T I I I T E P J I I d p 0 > M b b < , 0 M < s T O.f.F.w.C.I.        ",
"      n.`.C.{.>.p 1 7 6 1 6 3 & $ : + 1 8 p 7 v E J x c l z J J H c c c v z J I J z 8 7 1 * $ $ 7 8 3 8 * 7 J Q G.D.>Xe.n.      ",
"      c.( Y.f.y O * * 6 7 1 1 7 7 7 6 p k p a v c l v l z H c c J H x x x c z x H v 8 7 9 7 7 7 k 7 z x k + + p >.{.C.S.m.      ",
"    ) V.e. X>.1 o O * 1 1 1 8 u y Z A s p a B D B d I v y V A C g a c d n Y n f c V D N N B a 9 8 p v l 8 7 1 k U J.H.7Xx.m.    ",
"  ! .XD.x..X{ $ + o * 1 1 1 k k y +.!.r g ,.D _ Q.W.n f | ] D [ 2.B I g 2.[.X.d c Z !._ N 4.2.a c z p 8 7 7 & 8 p >.}.c.D.k.    ",
"  %.r.&.Z.G.;.$ O o O * 6 l l 1 9 O.!.r +.~.y 8 V #X .A [.n d V V g H B +.,.y.g P V !.[ j 4.4.d x l p l 8 1 O 9 k } {.Z.#Xl.    ",
"  *.].V.'...m : % $ * 6 8 l u 3 = O.s.r 3.(.i v f !..._ [.j a D i.D i | <.` !._ f C i.` -.y.h f x l c v 8 7 $ y p p >.{.z.V.    ",
"  q.<XY.J.S ; > > @ * 7 8 l n ,.g 3.y.r S (.2.L Z 4.B L ~.3.Z Z s.A B u.B d ,.i.g Z f.N j p.2.r u z x 7 7 1 * 6 1 s { Y.c.Z.    ",
"  6.|.Z.}.D o @ @ o * 1 7 p f :.X.X.n 9 a V o._ F h z v U } } _ D i A D i L R O.C C | N y B ` N y l 7 + * + 7 l 8 U G.D.q.c.    ",
"  %.A.V. XW + O O & * 1 6 3 7 8 y 9 7 8 z c x a u u z P I P c d x c v a v P P c d d x c z p v v l p & 6 8 6 * 1 * b A.F.2Xb.    ",
"  ^ Z.t. X;.$ # # & & O * # $ 4 5 , 3 $ 6 k k v v l z v z P P v z x l 9 u l v v a a c v d p 7 : t > % > > + X O + m H.G.%X&.    ",
"    V.8.{.p.0 + O o X . X @ ; < < t < - o o o * * & & & & 6 7 1 * * 1 7 p 7 7 7 3 * * $ $ * $ % b < : : ; + % % $ W }.V.A.l.    ",
"    l.@XD.'. .s $ @ o @ @ @ - - $ ; : $ $ * @ + 1 1 $ 1 1 4 1 1 1 1 1 $ 3 1 * 3 4 5 0 0 1 $ - % : - 2 1 1 3 7 1 5 >.}.c.F.m.    ",
"    b.e.@.V.XXH.y. .m m m m G X.,.X.{ R Q { G S >.,.R Q { ,...X...X.X...W S R >.d.a.f.f.>.G S { o.o.X.;.;.;.,.X.1.G.F.-Xb.!     ",
"    ! c.e.Y.|.=.%X$XOXoXOXOX%X%X*X*X&X&X%X$XOX$XoXoXOXoXoXOX:X;X;X*X;X%XOXoXoXoX*X  e 3X:X;X*X%X%X:X;X*X*X;X*X5X4X9.^.m.b.      ",
"        #./ r.F.H.`.).).A.`.`.A.A.G.`.).).).A.A.`.'.].XX].'.G.A.A.G.`.`.`.S.`.`.G.D.H.H.G.).).`.`.`.`.).G.A.A.A.A.C.m.B.        ",
"              ~ ! h.B.K.K.v.8.m.m.m.m.m.m.m.m.m.m.*.&.( %.6.n.      8.#.0.I.c.*.$.      m.m.m.w.! !                             "
};
