/* XPM */
static char *_7[] = {
/* columns rows colors chars-per-pixel */
"64 21 213 2 ",
"   c black",
".  c #0E0B05",
"X  c #1A140A",
"o  c #140F08",
"O  c #241C0B",
"+  c #2B1E0C",
"@  c #251D10",
"#  c #2C220C",
"$  c #2A2408",
"%  c #34240D",
"&  c #3B2B0D",
"*  c #36280B",
"=  c #2E2211",
"-  c #332512",
";  c #352913",
":  c #3B2B13",
">  c #382710",
",  c #3D330D",
"<  c #442B0D",
"1  c #462A0C",
"2  c #47390C",
"3  c #58380D",
"4  c #422E13",
"5  c #452F15",
"6  c #453116",
"7  c #4B3314",
"8  c #4E391A",
"9  c #493717",
"0  c #523613",
"q  c #543A15",
"w  c #5A3E19",
"e  c #583C17",
"r  c #522F0A",
"t  c #663E0D",
"y  c #643E11",
"u  c #703D06",
"i  c #563E20",
"p  c #55480A",
"a  c #594417",
"s  c #4E420C",
"d  c #78470C",
"f  c #6B4413",
"g  c #674818",
"h  c #7A4B11",
"j  c #734C1B",
"k  c #754A14",
"l  c #6D571A",
"z  c #745C1D",
"x  c #79541A",
"c  c #624F0D",
"v  c #7C641B",
"b  c #7A5822",
"n  c #6A4A23",
"m  c #7A6220",
"M  c #594020",
"N  c #970000",
"B  c #EA0000",
"V  c #F10000",
"C  c #FF0000",
"Z  c #FF0D00",
"A  c #FF1100",
"S  c #FF2B00",
"D  c #FF3000",
"F  c #834D0C",
"G  c #89540C",
"H  c #965A09",
"J  c #885716",
"K  c #945D12",
"L  c #945E18",
"P  c #864F12",
"I  c #99660D",
"U  c #88661B",
"Y  c #986618",
"T  c #99761A",
"R  c #AA730F",
"E  c #A46B14",
"W  c #A97718",
"Q  c #B87A15",
"!  c #A96A0F",
"~  c #845820",
"^  c #896924",
"/  c #986A24",
"(  c #967823",
")  c #9C7830",
"_  c #A47926",
"`  c #FF5A00",
"'  c #FC5300",
"]  c #FF6401",
"[  c #FC6A00",
"{  c #FF7E00",
"}  c #FF7306",
"|  c #FF641B",
" . c #FF463F",
".. c #FF464D",
"X. c #B5871D",
"o. c #B4861C",
"O. c #9F8227",
"+. c #AA8628",
"@. c #B58A26",
"#. c #BA962A",
"$. c #BA9736",
"%. c #B08734",
"&. c #FF8700",
"*. c #FF8C00",
"=. c #FF9100",
"-. c #FB9900",
";. c #F29411",
":. c #FDA704",
">. c #FFB905",
",. c #FEB91A",
"<. c #F0A913",
"1. c #C49E2A",
"2. c #C39C33",
"3. c #FF982D",
"4. c #CBA429",
"5. c #CAA534",
"6. c #D3AB34",
"7. c #D8B337",
"8. c #D7AC27",
"9. c #FFB826",
"0. c #E4BA37",
"q. c #FFA52A",
"w. c #C99419",
"e. c #FFC201",
"r. c #FFCB00",
"t. c #FEC70B",
"y. c #FFDB00",
"u. c #FFD704",
"i. c #FFC41A",
"p. c #FDC91A",
"a. c #FED31E",
"s. c #FEDA1B",
"d. c #E8D300",
"f. c #DDFF00",
"g. c #FFE300",
"h. c #FFEC00",
"j. c #FFEC0C",
"k. c #FFF300",
"l. c #FFFE00",
"z. c #F9F608",
"x. c #FFE51D",
"c. c #FCF61E",
"v. c #FDC52C",
"b. c #FFCC2A",
"n. c #FAC824",
"m. c #FFD324",
"M. c #FFDC23",
"N. c #FFDD2A",
"B. c #FED22D",
"V. c #ECC336",
"C. c #FDCD3A",
"Z. c #FAC737",
"A. c #FFD334",
"S. c #FFD43C",
"D. c #FFDB3C",
"F. c #FCD935",
"G. c #EFD03D",
"H. c #FFE723",
"J. c #FFFF26",
"K. c #FFF628",
"L. c #FFEA34",
"P. c #FFEC3E",
"I. c #FFE135",
"U. c #FFF13D",
"Y. c #FFFE3D",
"T. c #FEB958",
"R. c #F6B74D",
"E. c #FF9771",
"W. c #CEB448",
"Q. c #FFDC41",
"!. c #F6D34D",
"~. c #FEC958",
"^. c #EDD654",
"/. c #FFDD5D",
"(. c #FED359",
"). c #ECC94D",
"_. c #FFE442",
"`. c #FFED43",
"'. c #FFEF4A",
"]. c #FEE54B",
"[. c #FFF443",
"{. c #FFFD45",
"}. c #FFF549",
"|. c #FFFD4A",
" X c #FFFF52",
".X c #FCF458",
"XX c #FAE75E",
"oX c #FBCA63",
"OX c #FDD262",
"+X c #EED969",
"@X c #FDF272",
"#X c blue",
"$X c #2200FF",
"%X c #7400FF",
"&X c #FF00AA",
"*X c #FC7484",
"=X c #DE00FF",
"-X c #FE00FF",
";X c #F028FF",
":X c #FF79FF",
">X c #FFA199",
",X c #F3FF8A",
"<X c #F5FF81",
"1X c #FEFF9A",
"2X c #FFFFAA",
"3X c #FFFFA7",
"4X c #B682FF",
"5X c #FFBDFF",
"6X c #FFFFDE",
"7X c #F7FFFF",
"8X c #FFFFFE",
"9X c #F5EAF1",
"0X c #FEDCD8",
/* pixels */
"                Z C =.k.l.-.<.n.x.x.s.<.y.g.;.v.K.,.d.z.l.g.u.u.y.k.h.g.h.y.y.y.g.k.g.y.k.r.t.m.9.3.] k.e.D ` C                 ",
"        h.l.j.x.D.].XXR.R.@X8X` -Xl.l.6X(.~..X<X&X@X/.~.R.~.!././.~.~.~.~.OXOXOXoXT.(./.T.OX9X4XC 7X1X~.(.|.v.x.E.l.            ",
"    l.l.j.R.;Xl.c.S._.Y.[.{.|.|.}.}.|.D.[.L.I.`.|.{.[.Y.Y.U.P.[.}.}.{.Y.Y.{.[.{.|. X{.P.{.|.P.|.}.}.}.{.Y.A.,.l.;.B '           ",
"  C l.9.l.a.[.{._.Z.0.5.4.#.T T T v U 0.4.6.0.5.$.$.2.5.5.5.5.5.5.7.6.5.5.2.2.2.#.#.#.6.#.+.4.+.T #.#.2.6.V.D.B.<.J.B C         ",
"  l.i.:.B._.#.^ _ z a j 0 p p 2 p s 2 s 2 ~ / ^ ^ l b ^ / W @.W W R Y Y Y L J Y g 2 2 c p c U l c c s , ^ ) 5.S.n.r.e.}         ",
"  >.C 9.Q.5.l y 0 8 : % % % * , $ # 4 0 q f f w 7 w / Y E Q Q w.Q ! R E G d d f f < + & & * $ O O * ; # > n ^ 0.S.,.2X:.y.      ",
"  9.t.Z.Q.z : 7 7 6 w 8 : + > % > q w x f g %.+.x J J J W W Y E R E E R ! P h h x x w 0 5 > + : 9 9 9 i # % 7 ( Q.v.;.8.-.      ",
"  b.u.S.V.a 7 % > : : 6 7 1 3 h f k w j y J Y _ U h J Y K K K K E K G H G F G H F h x h d 3 7 8 8 8 i 8 ; + 7 a 2.D.m.l.z.      ",
"  9.t.S.0.a 7 # + 9 6 7 y t 5.4.Q 4.+.y U X._ 2.6._ F 2.)._ d E ).E K 7.R d K 6.G Y #.I @.4.h j n n n M : o % & U D.A.y.p.A     ",
"  a.t.D.0.e : 9 6 8 w 8 0 t W.7.J 7.#.h ).W 3 f 5.^.K @.^.^.W G 8.H E +X_ H H 1.F @.7.T K Y t j g j a 8 ; o O - a Z.S.>.H.A     ",
"N 8X<.D.5.: = 6 5 6 w 0 f h W.8.W 7.@.I !.$.h h Y G.H W W %.+XX.4.H H V.T H H o.G J _ $.4.w.J k g j w 8 e < O ; 8 7.S.b.3X>.    ",
"[ V Z.Q.5.: = : 7 3 0 f t t 7.4.u @.!.L 5.^.Y J o.1.d @.@.h %.^.).G G 7.#.E E o.d X.o.h h 8.T k J w 8 y f 5 : = = O._.a.E.l.    ",
"k.l.F.Q.#.p 2 p 2 p r 3 g f +.W H I I I L $.#.R I h h +.@.P P Y W d h / @.W I F d U $.+.I G h j w 4 > + 5 < 5 - ; #._.p.>Xk.    ",
"h.h.b.Q.( 2 2 s p s * 5 0 7 & f y k J Y Y J P J J / Y J f h J L J L I I d J K J P t f F f f e q 8 6 4 > O o X @ ; 5.Q.B.0Xy.    ",
"h.l.b._.U O X O * * O # > % + % 7 q g x x ~ j J ~ ~ x J J P J x J Y Y k k Y Y E Y J x j g & 2 2 s & % # 6 - X X 8 Z.S.i.Y.'     ",
"g.l.m.D.1.: @ = % + - X O # O X ; - O + : q q e 7 : & 6 g a 7 g x x x a e 0 r t 3 < < & O $ 2 , 2 s , O * ; O X l _.S.e.i.]     ",
"] q.:.A.C.( 9 O = ; ; - O 6 9 - - - O . . o O = - - > = + O + % & 7 y 0 1 r 1 < < % + 4 # # # O O $ O O O $ $ # ^ `.b.Z ;.      ",
"l.k.5Xs.F.`.7.z m m a a , 8 a a g g a 9 2 s l z m ^ z z z a g z z g a g g U ( ( ( #.U z z ^ / v z l z m l ^ +.#.7.A.i.R.l.      ",
"  y.g.p.l.i.P. X|.|.`.D.C.V.V.V.V.V.V.C._.[.{.{.{.}.{.{.[.}.}.}.}.`.C.S.`.|.}.}. X|.{.|.|.{.{.|.|.|.{.{.|. X{.P.m.-.-Xk.k.      ",
"    l.l.x.F.oX*X=X%XH.M.L.N.N.N.N.N.N.M.b.9.=.&.{ ] ] ] ` .. .] *.,.b.v.3.} f.:X,X8X8X-X-X#Xl.l.S l.$X-X7X>XT.(.B.t.k.g.        ",
"        e.:.h.H.M.K.S.C.S.C.C.C.C.C.C.Z.Z.Q.p.i.i.i.i.i.i.(.!.i.p.Z.Z.Z.!.A.s.H.q.| ,.H.H.x.x.a.i.a.x.s.9.M.z.y.*.=.            "
};
