/* XPM */
static char *lamp_on[] = {
/* columns rows colors chars-per-pixel */
"64 64 236 2 ",
"   c #030201",
".  c #0B0705",
"X  c #0D0906",
"o  c #0C0708",
"O  c #0C0A09",
"+  c #120B06",
"@  c #1A0F05",
"#  c #130D0A",
"$  c #190F0C",
"%  c #181109",
"&  c #1D130C",
"*  c #1B1615",
"=  c #280D05",
"-  c #3E0704",
";  c #251305",
":  c #2C1706",
">  c #22150D",
",  c #2A1609",
"<  c #25190D",
"1  c #2B1B0D",
"2  c #321B06",
"3  c #361908",
"4  c #331D0A",
"5  c #221610",
"6  c #251A12",
"7  c #2C1D13",
"8  c #2E1F19",
"9  c #311F13",
"0  c #21210B",
"q  c #2E200F",
"w  c #34220E",
"e  c #3B220B",
"r  c #3F290E",
"t  c #2E2112",
"y  c #29231D",
"u  c #342312",
"i  c #3B2614",
"p  c #3C2914",
"a  c #34241B",
"s  c #3B261C",
"d  c #36291F",
"f  c #3D291C",
"g  c #23262B",
"h  c #3D2C21",
"j  c #3D3023",
"k  c #481E06",
"l  c #41230A",
"z  c #44290D",
"x  c #4A2C0D",
"c  c #50290C",
"v  c #52340B",
"b  c #422513",
"n  c #432C13",
"m  c #4A2D13",
"M  c #432B1C",
"N  c #4B2D1B",
"B  c #522E14",
"V  c #4C3214",
"C  c #48341A",
"Z  c #4C331D",
"A  c #543414",
"S  c #5A3314",
"D  c #5B3916",
"F  c #54341C",
"G  c #5A361D",
"H  c #563C1C",
"J  c #5C3C1A",
"K  c #653B16",
"L  c #643D1D",
"P  c #733C12",
"I  c #432D22",
"U  c #4A2E21",
"Y  c #433224",
"T  c #4C3224",
"R  c #4B372A",
"E  c #533523",
"W  c #5B3621",
"Q  c #563A24",
"!  c #5C3B24",
"~  c #533628",
"^  c #55392B",
"/  c #5B3C2C",
"(  c #403B36",
")  c #613C23",
"_  c #683E27",
"`  c #613E2D",
"'  c #733E24",
"]  c #5D421A",
"[  c #694716",
"{  c #65441B",
"}  c #6A431C",
"|  c #66491D",
" . c #744A1A",
".. c #78571E",
"X. c #5B4427",
"o. c #564536",
"O. c #6D4322",
"+. c #654A23",
"@. c #64422B",
"#. c #69462A",
"$. c #6A462C",
"%. c #664828",
"&. c #6C4B2A",
"*. c #774929",
"=. c #734C2D",
"-. c #6C5129",
";. c #755425",
":. c #7D5926",
">. c #74542C",
",. c #79562B",
"<. c #7B5A2C",
"1. c #664231",
"2. c #6B4834",
"3. c #724C31",
"4. c #6D5737",
"5. c #7D5331",
"6. c #7D5D31",
"7. c #745639",
"8. c #925C0E",
"9. c #835B1C",
"0. c #976813",
"q. c #A8761A",
"w. c #825B23",
"e. c #8E5328",
"r. c #855829",
"t. c #835636",
"y. c #A05220",
"u. c #896329",
"i. c #8C622A",
"p. c #976B24",
"a. c #936429",
"s. c #9D6C2E",
"d. c #8C7123",
"f. c #987529",
"g. c #856332",
"h. c #8C6834",
"j. c #976C31",
"k. c #997437",
"l. c #A16C2C",
"z. c #A6752C",
"x. c #A76634",
"c. c #A87836",
"v. c #B37C37",
"b. c #BC990B",
"n. c #BE8617",
"m. c #A7872C",
"M. c #AA912C",
"N. c #B4982F",
"B. c #AD843A",
"V. c #B3843B",
"C. c #B7893B",
"Z. c #BA9932",
"A. c #B9A22F",
"S. c #BBA131",
"D. c #BCBC32",
"F. c #CA8B0D",
"G. c #D1900A",
"H. c #C98D14",
"J. c #D49313",
"K. c #E7A214",
"L. c #C78B2A",
"P. c #C58A3A",
"I. c #CB943E",
"U. c #D7963F",
"Y. c #EA9838",
"T. c #CAB732",
"R. c #CBB834",
"E. c #F7B632",
"W. c #D7C21D",
"Q. c #FFE618",
"!. c #C2C239",
"~. c #D7C737",
"^. c #E3D739",
"/. c #EDE439",
"(. c #F8E538",
"). c #FFF33C",
"_. c #FBF939",
"`. c #FEFC3E",
"'. c #9D8D42",
"]. c #AC8841",
"[. c #BC8D44",
"{. c #A69145",
"}. c #BB9343",
"|. c #BB9546",
" X c #BEA34D",
".X c #BDAF63",
"XX c #C88D43",
"oX c #C59041",
"OX c #C49746",
"+X c #CA9443",
"@X c #C59E49",
"#X c #CA9C4C",
"$X c #D79744",
"%X c #D49A44",
"&X c #DB9D45",
"*X c #D09F50",
"=X c #E19C46",
"-X c #C5A24C",
";X c #C9A24A",
":X c #DCA343",
">X c #DCA149",
",X c #D6A848",
"<X c #D4BF43",
"1X c #D6A954",
"2X c #D6B154",
"3X c #E7A748",
"4X c #EEAA4F",
"5X c #ECB74A",
"6X c #F7BB46",
"7X c #F7B653",
"8X c #DFBD6D",
"9X c #E5B274",
"0X c #FEC344",
"qX c #FFCD45",
"wX c #F6C54C",
"eX c #FDD349",
"rX c #F7CA54",
"tX c #E9D050",
"yX c #FAD557",
"uX c #FFFC45",
"iX c #F5EF56",
"pX c #EDDB66",
"aX c #FCD862",
"sX c #E1DB78",
"dX c #F5E86C",
"fX c #FFFB66",
"gX c #FFFA75",
"hX c magenta",
"jX c #C6B780",
"kX c #FEDB96",
"lX c #F8F582",
"zX c #F5F192",
"xX c #FCDEA0",
"cX c #F9F6B0",
"vX c #FEFEF3",
"bX c #FEFEFE",
/* pixels */
"hXhXhXhXhXhXhXhXhXhXhXhXhXhXhXhXhXhXhXhXhXhXhXhXhXhXhXhXhXhX# > & # hXhXhXhXhXhXhXhXhXhXhXhXhXhXhXhXhXhXhXhXhXhXhXhXhXhXhXhXhXhX",
"hXhXhXhXhXhXhXhXhXhXhXhXhXhXhXhXhXhXhXhXhXhXhXhXhXhXhXhX# M M T T M M # . I ! X hXhXhXhXhXhXhXhXhXhXhXhXhXhXhXhXhXhXhXhXhXhXhXhX",
"hXhXhXhXhXhXhXhXhXhXhXhXhXhXhXhXhXhXhXhXhXhXhXhXhXhXhXX E E E X.T E ! E + $.#.#.X X . . hXhXhXhXhXhXhXhXhXhXhXhXhXhXhXhXhXhXhXhX",
"hXhXhXhXhXhXhXhXhXhXhXhXhXhXhXhXhXhXhXhXhXhXhXhXhXhXhX> E E T > u Z ! ! ! T @.@.@.. T M . hXhXhXhXhXhXhXhXhXhXhXhXhXhXhXhXhXhXhX",
"hXhXhXhXhXhXhXhXhXhXhXhXhXhXhXhXhXhXhXhXhXhXhXhXhXhX+ f T f 7 > M i ) ! ) 9 ! @.$.! u M M i hXhXhXhXhXhXhXhXhXhXhXhXhXhXhXhXhXhX",
"hXhXhXhXhXhXhXhXhXhXhXhXhXhXhXhXhXhXhXhXhXhXhXhXhXf u Z f 7 7 7 6 E =.@.Q ! M ` @.$.7 i M N 7 hXhXhXhXhXhXhXhXhXhXhXhXhXhXhXhXhX",
"hXhXhXhXhXhXhXhXhXhXhXhXhXhXhXhXhXhXhXhXhXhXhXhXhXM i 7 7 7 7 7 ! =.t.#.! E M u ! @.$.! > u Z $.hXhXhXhXhXhXhXhXhXhXhXhXhXhXhXhX",
"hXhXhXhXhXhXhXhXhXhXhXhXhXhXhXhXhXhXhXhXhXhXhXhXhXM f u u f s i 3.5.5.#.! F ! ! @.$.@.~ ~ . +   . hXhXhXhXhXhXhXhXhXhXhXhXhXhXhX",
"hXhXhXhXhXhXhXhXhXhXhXhXhXhXhXhXhXhXhXhXhXhXhXhXM Z E E T 7 u f 5.5.=.&.E F Z @.! < > &.5.<   u e.  hXhXhXhXhXhXhXhXhXhXhXhXhXhX",
"hXhXhXhXhXhXhXhXhXhXhXhXhXhXhXhXhXhXhXhXhXhXhX. X M M T T 9 Z E t.=.=.&.=.Q Z Q N M i T > a 7 7 a a b hXhXhXhXhXhXhXhXhXhXhXhXhX",
"hXhXhXhXhXhXhXhXhXhXhXhXhXhXhXhXhXhXhXhXhXhX. . . i M Z T E @.#.=.=.=.=.5.! i u M u # + 5 6 6 & X # 7 X hXhXhXhXhXhXhXhXhXhXhXhX",
"hXhXhXhXhXhXhXhXhXhXhXhXhXhXhXhXhXhXhXhXhXhX. hXhX. 1 M Z Q @.=.=.=.&.&.#.u < Z 6 & 7 h R j Y a a a & a   hXhXhXhXhXhXhXhXhXhXhX",
"hXhXhXhXhXhXhXhXhXhXhXhXhXhXhXhXhXhXhXhXhXhX. hXhXhXhX< M Z Q #.=.&.&.#.Z 7 1 % 6 M Y Y R h h f f a h 6 d hXhXhXhXhXhXhXhXhXhXhX",
"hXhXhXhXhXhXhXhXhXhXhXhXhXhXhXhXhXhXhXhXhXhX. hXhXhXhXhXhX7 M ! #.#.#.~ > Z + % M Y Y Y Y h f a Y M > R ~ a hXhXhXhXhXhXhXhXhXhX",
"hXhXhXhXhXhXhXhXhXhXhXhXhXhXhXhXhXhXhXhXhXhX. hXhXhXhXhXhXhX+ Z Q ! ! F < Z # 3.M Y Y Y h h d o.X           . hXhXhXhXhXhXhXhXhX",
"hXhXhXhXhXhXhXhXhXhXhXhXhXhXhXhXhXhXhXhXhXhX. hXhXhXhXhXhXhXhXhX6 M Z Z V p & X.Y Y Y I T 6 . . 7 f M / ~ M a 7 hXhXhXhXhXhXhXhX",
"hXhXhXhXhXhXhXhXhXhXhXhXhXhXhXhXhXhXhXhXhXhX. hXhXhXhXhXhXhXhXhXhXhXhXV . D i u R Y T M . # 6 E ~ ^ ^ ^ / 1.R 6 1.hXhXhXhXhXhXhX",
"hXhXhXhXhXhXhXhXhXhXhXhXhXhXhXhXhXhXhXhXhXhX. hXhXhXhXhXhXhXhXhXhXhXhXhXhX& r 7 Y T 5 . 7 M / ^ E E N N b m L N , & hXhXhXhXhXhX",
"hXhXhXhXhXhXhXhXhXhXhXhXhXhXhXhXhXhXhXhXhXhX. . hXhXhXhXhXhXhX3 ] | y g hXhX> 4 I f . a ! E ~ E N =.9 X X . . . o . + hXhXhXhXhX",
"hXhXhXhXhXhXhXhXhXhXhXhXhXhXhXhXhXhXhXhXhXhX. . hXhXhXhXhXx J [.OX|.| r A 4.i X f 5 + @.~ E E ! Z   X 6 9 a s f f s 7 & hXhXhXhX",
"hXhXhXhXhXhXhXhXhXhXhXhXhXhXhXhXhXhXhXhXhXhX. . hXhXhXhXz h.|.;X-X;X@X@XV w # < t % s E ~ E F # X > a M I I U T T I M 6 # hXhXhX",
"hXhXhXhXhXhXhXhXhXhXhXhXhXhXhXhXhXhXhXhXhXhXhX. hXhXhX; J }.@X@X;X,X2X#X-.z   hXn w M E ) G & + 7 f M T T T T T T T ~ 6 7 # hXhX",
"hXhXhXhXhXhXhXhXhXhXhXhXhXhXhXhXhXhXhXhXhXhXhX. hXhXJ V ;.}.@X@X;X{.'.u w z   hXhXn M E O.N + < M N U T T T T ~ ^ 1.1.~ f   hXhX",
"hXhXhXhXhXhXhXhXhXhXhXhXhXhXhXhXhXhXhXhXhXhXhX. hXhX    6 n @ & n E v.c.;.z     * H M Z A , 9 M U T T T T ~ T ~ / / ^ ^ Y 2.. hX",
"hXhXhXhXhXhXhXhXhXhXhXhXhXhXhXhXhXhXhXhXhXhXhX. hXhXhXhXA h.c.[.XXc.c.m 2 Z &.<.r.H { F G ; < M T T T T I T / / ^ ^ ^ / ~ I s X ",
"hXhXhXhXhXhXhXhXhXhXhXhXhXhXhXhXhXhXhXhXhXhXhX. hXhXhXhX; w m z @ v.+ C k.u.X.,.,.<.V 0.c l 9 N E E T T T ^ / ^ ^ @./ / / 1.t.7 ",
"hXhXhXhXhXhXhXhXhXhXhXhXhXhXhXhXhXhXhXhXhXhXhX. hXhXhX+ p ] h.V.F H #X*X#X#X<.,.,.%.,.p.P b i N E E T T ~ ^ ^ / / ` @.@./ s * h ",
"hXhXhXhXhXhXhXhXhXhXhXhXhXhXhXhXhXhXhXhXhXhXhX. hX-.;.,.,.<.,.<.k.].OX#X|.h.<.>.u.F.,.%.9.B b N W ~ ~ T E / ^ / 1.1./ s 8 s a * ",
"hXhXhXhXhXhXhXhXhXhXhXhXhXhXhXhXhXhXhXhXhXhXhX.   | ,.,.,.,.,.g.[.OX#X*Xg.,.>.G.J.. a.z.# + B M G ) ~ T / ~ s ` @./ ^ f $ + I 7.",
"hXhXhXhXhXhXhXhXhXhXhXhXhXhXhXhXhXhXhXhXhXhXhX. . n.2.>.>.,.,.g.[.#X*X1XO.q.n.L.r hXP.i.l., [ m G ! ! ~ ^ a ` ` / ~ I & U I s I ",
"hXhXhXhXhXhXhXhXhXhXhXhXhXhXhXhXhXhXhXhXhXhXhX. X 0.G.F.q.p.i.u.+XI.n.F.H.0.v + hXhXhXz.a.K hXS G W ! ) h T ` / ~ a # U f I Y h ",
"hXhXhXhXhXhXhXhXhXhXhXhXhXhXhXhXhXhXhXhXhXhXhXhXx ..{ + K.J.H.J.J.L.v.2 ; : : 4 e l hXhXa.s.k S F G ! ! M ^ ` ~ 8   I f I I h o ",
"hXhXhXhXhXhXhXhXhXhXhXhXhXhXhXhXhXhXhXhXhXhXhXhXx d.a.p hXhX+ X @ @ x : e 2 V | :.<.hXhXi.a. .hXA J ) Q F ~ ! *   7 M I I a I # ",
"hXhXhXhXhXhXhXhXhXhXhXhXhXhXhXhXhXhXhXhXhXhXhXhXA m.a.p hXhXD x V m } w.a.i.s.P.U.&XhXhXz.i.a.( A G ) ! O.U + . # 1.I I h ` o   ",
"hXhXhXhXhXhXhXhXhXhXhXhXhXhXhXhXhXhXhXhXhXhXhXhXhXm.p.p hXP u.z.v.V.P.P.I.%X%X$X&XU.+XhXhX`.' l.9.F J ) L F & R a 6 I I I X     ",
"hXhXhXhXhXhXhXhXhXhXhXhXhXhXhXhXhXhXhXhXhXhXhXhXhXm.Z. .hXhXU.:XI.$X$X>XaX%X:X:X:X&X$X= hX).^.a.hXD G L L ! + s 7 6 6 a X     . ",
"hXhXhXhXhXhXhXhXhXhXhXhXhXhXhXhXhXhXhXhXhXhXhXhXhXf.^.E.hXhX3X3X6X0XqXxXbXE.5X3X:X:XU.= hXQ.).O.&.hXG L L ! 3 > M h $ _     . O ",
"hXhXhXhXhXhXhXhXhXhXhXhXhXhXhXhXhXhXhXhXhXhXhXhXhXw.~.Q.hXhX3X6X6X0X0XkXbXbXE.wX5X3XY.= 9X7.`.uXy.P.J J L O., N M * u e         ",
"hXhXhXhXhXhXhXhXhXhXhXhXhXhXhXhXhXhXhXhXhXhXhXhXhX .S._.hX= =X6X0X0X6XqXbXbXfX6X0XqX= = 7XhXW.(.Z.c.hX{ L *.4 i B 6 m .         ",
"hXhXhXhXhXhXhXhXhXhXhXhXhXhXhXhXhXhXhXhXhXhXhXhXhX} N.`.hXS 3XqX0XeXgXzXbXbXcXgXgX<X= $X7XhXhX)./.e.hXhXL } e p O.7 i       O   ",
"hXhXhXhXhXhXhXhXhXhXhXhXhXhXhXhXhXhXhXhXhXhXhXhXhX} M.uXhX,. .= eXaXuXbXvXbXbXuXgX= $X&X3XhXhX~.(.A j hX .L n i S b 4   #   O   ",
"hXhXhXhXhXhXhXhXhXhXhXhXhXhXhXhXhXhXhXhXhXhXhXhXhXhXM.T.b.hXE.iX= lXvXbXbXbXbXcX= 8X%X&X=XhXhX8.,.; : hXl } m i S L : .   . .   ",
"hXhXhXhXhXhXhXhXhXhXhXhXhXhXhXhXhXhXhXhXhXhXhXhXhXhXc.R.D.hX5XrXeX= = = bXbXbX= sX2X>X&X3XhXhX6 z.a.e 6 hXX.V p S D ; o . . .   ",
"hXhXhXhXhXhXhXhXhXhXhXhXhXhXhXhXhXhXhXhXhXhXhXhXhXhXs.R.D.hXhXrXyXdXlX.X= = = jXgXrX&X=X&Xb hXhXK a.e 1 hXhX} n n D : X   # .   ",
"hXhXhXhXhXhXhXhXhXhXhXhXhXhXhXhXhXhXhXhXhXhXhXhXhXhXv.R.D.hXhX6XrXyXdXgXsX- zX= = { 3XrXP.hXhXhX  s.m 4 hXhXhXV n S : b   . .   ",
"hXhXhXhXhXhXhXhXhXhXhXhXhXhXhXhXhXhXhXhXhXhXhXhXhXhXf.Z./.& hX6XwXwXaXfX= sXdXlXXX4 , 3 v.3.hXhXtXy.n 4 hXhXhXhXS S 4 P   .     ",
"hXhXhXhXhXhXhXhXhXhXhXhXhXhXhXhXhXhXhXhXhXhXhXhXhXhXp.A./.0 hXhX5X:XeX= 1X@X2X2X2X-XC.;.= hXhXx._.r.m w hXhXhXhXhXA 2 S   .     ",
"hXhXhXhXhXhXhXhXhXhXhXhXhXhXhXhXhXhXhXhXhXhXhXhXhXhX..N.T.!.hXhXs.0.= B.@X@X|.-XOX}.B...Z   P.`.r.s.e & hXhXhXhXhXA l K O       ",
"hXhXhXhXhXhXhXhXhXhXhXhXhXhXhXhXhXhXhXhXhXhXhXhXhXhX] M.T.^.hXhXhX= { }.}.OX}.}.C.k.V & @ < f.~.r.; x hXhXhXhXhXhXhXx : +   .   ",
"hXhXhXhXhXhXhXhXhXhXhXhXhXhXhXhXhXhXhXhXhXhXhXhXhXhXv f.A.N.| hXhXhX[ 9.p.f.w...H u u u + 7X  A A u hXhXhXhXhXhXhXhXhX4 # E     ",
"hXhXhXhXhXhXhXhXhXhXhXhXhXhXhXhXhXhXhXhXhXhXhXhXhXhX# ..M.N.m.{ u ; 1 r V V V n 1 u i.u.>XoX+X> t u 2 hXhXhXhXhXhXhXhXhXT 1     ",
"hXhXhXhXhXhXhXhXhXhXhXhXhXhXhXhXhXhXhXhXhXhXhXhXhXhXhXq d.M.m.f.A u 1 u w q u p c.>X[.+XoXoXoX7X< # p hXhXhXhXhXhXhXhXhXhX*     ",
"hXhXhXhXhXhXhXhXhXhXhXhXhXhXhXhXhXhXhXhXhXhXhXhXhXhXhXhXhXd.d.z.V C %X;.V.+X| oXoXV.V.+XoXoX%XC u u u n hXhXhXhXhXhXhXhXhXhXhX  ",
"hXhXhXhXhXhXhXhXhXhXhXhXhXhXhXhXhXhXhXhXhXhXhXhXhXhXhXhXhXhXd.:.1 3XoX+XoX>X+.V.V.j.oX%X+Xc.u.u u u u u hXhXhXhXhXhXhXhXhXhXhXhX",
"hXhXhXhXhXhXhXhXhXhXhXhXhXhXhXhXhXhXhXhXhXhXhXhXhXhXhXhXhXhXhXu & 4XoXoXoXoXk.  + 7X3X  { < q u u 1 1 < u hXhXhXhXhXhXhXhXhXhXhX",
"hXhXhXhXhXhXhXhXhXhXhXhXhXhXhXhXhXhXhXhXhXhXhXhXhXhXhXhXhXhXhXu q ] >X&X&X%X&X>X:XC.+.n q u u u n 6.g.n hXhXhXhXhXhXhXhXhXhXhXhX",
"hXhXhXhXhXhXhXhXhXhXhXhXhXhXhXhXhXhXhXhXhXhXhXhXhXhXhXhXhXhXhXu u # + & < t f Z &.-.u u w p p u 6.%.< hXhXhXhXhXhXhXhXhXhXhXhXhX",
"hXhXhXhXhXhXhXhXhXhXhXhXhXhXhXhXhXhXhXhXhXhXhXhXhXhXhXhXhXhXhXu u w n X.6.,.,.,.>.&.i Z t %.&.g.g.u hXhXhXhXhXhXhXhXhXhXhXhXhXhX",
"hXhXhXhXhXhXhXhXhXhXhXhXhXhXhXhXhXhXhXhXhXhXhXhXhXhXhXhXhXhXhXu u u i n &.>.>.&.k.k.k.|. X X{.Z > hXhXhXhXhXhXhXhXhXhXhXhXhXhXhX",
"hXhXhXhXhXhXhXhXhXhXhXhXhXhXhXhXhXhXhXhXhXhXhXhXhXhXhXhXhXhXhXu u u u Z &.<.,.>.6.g.-XpX% u 4.hXhXhXhXhXhXhXhXhXhXhXhXhXhXhXhXhX",
"hXhXhXhXhXhXhXhXhXhXhXhXhXhXhXhXhXhXhXhXhXhXhXhXhXhXhXhXhXhXhXhXhXn p i u u p C i w hXhXhXhXhXhXhXhXhXhXhXhXhXhXhXhXhXhXhXhXhXhX",
"hXhXhXhXhXhXhXhXhXhXhXhXhXhXhXhXhXhXhXhXhXhXhXhXhXhXhXhXhXhXhXhXhXhXhXhXhXhXhXhXhXhXhXhXhXhXhXhXhXhXhXhXhXhXhXhXhXhXhXhXhXhXhXhX",
"hXhXhXhXhXhXhXhXhXhXhXhXhXhXhXhXhXhXhXhXhXhXhXhXhXhXhXhXhXhXhXhXhXhXhXhXhXhXhXhXhXhXhXhXhXhXhXhXhXhXhXhXhXhXhXhXhXhXhXhXhXhXhXhX",
"hXhXhXhXhXhXhXhXhXhXhXhXhXhXhXhXhXhXhXhXhXhXhXhXhXhXhXhXhXhXhXhXhXhXhXhXhXhXhXhXhXhXhXhXhXhXhXhXhXhXhXhXhXhXhXhXhXhXhXhXhXhXhXhX"
};
