/* XPM */
static char *lamp_off[] = {
/* columns rows colors chars-per-pixel */
"64 64 118 2 ",
"   c #000000",
".  c #080706",
"X  c #090807",
"o  c #0C0B0A",
"O  c #100F0E",
"+  c #11100F",
"@  c #141312",
"#  c #181716",
"$  c #191817",
"%  c #1C1C1B",
"&  c #211E1D",
"*  c #21201F",
"=  c #242322",
"-  c #292725",
";  c #292827",
":  c #2D2C2A",
">  c #302F2E",
",  c #32312F",
"<  c #353432",
"1  c #383735",
"2  c #3A3937",
"3  c #3D3C3A",
"4  c #403F3D",
"5  c #41413E",
"6  c #454442",
"7  c #494745",
"8  c #4A4947",
"9  c #4D4C4A",
"0  c #504F4C",
"q  c #52514E",
"w  c #555452",
"e  c #585654",
"r  c #5A5956",
"t  c #5D5C59",
"y  c #605F5D",
"u  c #62615E",
"i  c #666462",
"p  c #696665",
"a  c #6D6B67",
"s  c #6A6966",
"d  c #6C6B68",
"f  c #6D6C69",
"g  c #6E6C6A",
"h  c #6F6E6B",
"j  c #6D6C69",
"k  c #716F6D",
"l  c #716F6D",
"z  c #71706D",
"x  c #72716E",
"c  c #73716F",
"v  c #73726F",
"b  c #72716D",
"n  c #747270",
"m  c #747371",
"M  c #757371",
"N  c #767573",
"B  c #767573",
"V  c #787774",
"C  c #797775",
"Z  c #787773",
"A  c #797875",
"S  c #7A7875",
"D  c #7A7876",
"F  c #7A7976",
"G  c #7B7A76",
"H  c #797875",
"J  c #7E7C78",
"K  c #7F7D7A",
"L  c #7F7D7B",
"P  c #7F7F7D",
"I  c #7D7D7B",
"U  c #807F7C",
"Y  c #82807D",
"T  c #82817D",
"R  c #83827F",
"E  c #82817E",
"W  c #858380",
"Q  c #858580",
"!  c #868481",
"~  c #868581",
"^  c #858481",
"/  c #888683",
"(  c #898784",
")  c #8B8986",
"_  c #8B8987",
"`  c #8B8A86",
"'  c #8C8A87",
"]  c #8C8B87",
"[  c #8B8A86",
"{  c #8D8B88",
"}  c #8D8C88",
"|  c #8E8D8B",
" . c #8F8E8A",
".. c #8E8C89",
"X. c #908F8C",
"o. c #908F8C",
"O. c #92918D",
"+. c #95948F",
"@. c #93918E",
"#. c #969591",
"$. c #989795",
"%. c #9C9A94",
"&. c #999995",
"*. c #9F9E99",
"=. c #A2A19D",
"-. c #A4A49F",
";. c #A7A7A2",
":. c #A9A8A3",
">. c #AAAAA5",
",. c #ADADA7",
"<. c #AAAAA5",
"1. c #AAAAAA",
"2. c #ADADA8",
"3. c #AEAEA9",
"4. c #AEAEA8",
"5. c gray70",
"6. c #D5D5D5",
"7. c white",
/* pixels */
"                                                                                                                                ",
"                                                                            .                                                   ",
"                                                              o     .     @ + +                                                 ",
"                                                                    X X .   o O o                                               ",
"                                                                    X . X   . o @ .                                             ",
"                                                                    @ o . .   X o @                                             ",
"                                                                X % = + .       X o @ X       @                                 ",
"                                                                % = * @ X   . . o @ o .                                         ",
"                                                                = % % @       o .     @ %       ;                               ",
"                                                                : % # @ $ .   .                                                 ",
"                                                            o + % % # @ % .                                                     ",
"                                                            o $ % # @ @ +                                         7.            ",
"                                                  7.=       . @ # @ @ @                                             7.          ",
"                                              7.7.7.          . @ @ @ .                                                         ",
"                                                                . X .         @               o                                 ",
"                                                                              o                       X                         ",
"                                                                                                  . . . X +     o               ",
"                                                            7.          w                   . .             .                   ",
"                                                            1   X +     5.              .         %                             ",
"                                                :           . w y t @     %           o       .                                 ",
"                                                          < t p i p i i                                                         ",
"                                                        . r i i s g n p %               .                                       ",
"                                                    .   % e i i s w 9         6.        +                       . O @           ",
"                                                                  . 8 3 %                                       . . . .   @     ",
"                                                          < 6 w r 7 6       # - ; . o                       X . . . . .         ",
"                                                                  7     3 : o * * -   >                   . . . . o X o X @ =   ",
"                                                          X > q   . p s i i = * * @ * < O                 . . X . o o o X       ",
"                                                  $ % & = = & = 2 8 t i r < = % ; e * + =                 . . X o O X           ",
"                                                  + % % = * * : r t i s : * % r t   > 3           .     X     X o X           % ",
"                                                  9 @ % % * * : r i p k @ 3 0 q     q : 2   o     . .   .   o o .               ",
"                                                  , r e 5 1 : : i y 0 9 w <           3 : .       . . X     o X                 ",
"                                              1.  % o   a r q t y t 8                   : 1       . . X   . o                   ",
"                                                  < >                         @ = =     : > @     . . .     .                   ",
"                                                  8 :               @ = , : 2 t i s     3 : >       X . +         O       X     ",
"                                                  9 <     . : 4 8 9 w t u i i i d i y     3.O 1 =   . X o                       ",
"                                                  7 r @     i g t i y z V k k g g d i   1.;.' > .     X X .                     ",
"                                                  2  .J     z S R  .@. .B z S n z g u     %.:.+ @ .   . X X           o         ",
"                                                  = ~ +.    z R / ' { ` V B S ~ J S a   P * >.3.- e . . X O                     ",
"                                                  $ u ,.    g ~ ` ` ' X.; n J ~ R z     W   S =.t 6   o X %                     ",
"                                                  O w 3.    k @.' `  .X.< q U W S g   i U   t -.%.= p & X o     +               ",
"                                                  O 0 3.  % @   @. .{  .~ 8 J R J   i p z P @ ~ *.      @ o                     ",
"                                                    q z r   S %.  #. .{  .7 U B   R p s g     - %     %   o       X             ",
"                                                    7 S z   R @.` o @   $.: 2   i g d s z       3 <       o       .             ",
"                                                    2 S z      .o.~ S g     X B n g d d d       o <         O     .             ",
"                                                    7 Z z     ~ X.@. .( X..   X   % Z ~ e         2         =                   ",
"                                                    4 y #.    W ` ` #.G = g   P r       8 %      .-                   o         ",
"                                                    < i $.    W U z #.  k i   d B s w %   o 6 1 =.%                             ",
"                                                    % t g B     3 :   8 i i         9 %     r >.- 1             %               ",
"                                                    o q d  .        o r t y                 2 S *                 e             ",
"                                                      4 t r +       @ - ,                 R                         &           ",
"                                                      = q t 8 o                     > : g t t                                   ",
"                                                        1 q 7 4                 6 g w t t t t ~                                 ",
"                                                          < 1 5     i % q y + t t q 9 t t t p                                   ",
"                                                            < =   B t u t g @ 9 9 1 t i i 7 :           =                       ",
"                                                                  S t t t t 3     W B   O                                       ",
"                                                                  X g d s s d g d e @             - :                           ",
"                                                                                @ %             - @                             ",
"                                                                      o - % % % % @       + @ : :                               ",
"                                                                        $ % % @ 5 2 3 y p i w                                   ",
"                                                                        # = * % - : s %.    =                                   ",
"                                                                                                                                ",
"                                                                                                                                ",
"                                                                                                                                ",
"                                                                                                                                "
};
